ncols 128
nrows 128
xllcorner 0
yllcorner 0
cellsize 120
NODATA_value -9999
106.67 104.01 101.42 99.08 97.14 95.66 94.64 93.99 93.58 93.19 92.61 91.65 90.13 87.94 85.04 81.49 77.39 72.93 68.34 63.84 59.67 55.99 52.92 50.51 48.71 47.40 46.42 45.57 44.63 43.42 41.81 39.71 37.14 34.18 30.98 27.74 24.70 22.06 20.02 18.72 18.22 18.50 19.46 20.94 22.74 24.63 26.39 27.84 28.87 29.42 29.52 29.29 28.88 28.50 28.35 28.63 29.49 31.00 33.18 35.95 39.16 42.61 46.08 49.32 52.14 54.38 55.96 56.85 57.15 56.99 56.55 56.05 55.71 55.69 56.12 57.05 58.45 60.21 62.17 64.13 65.86 67.15 67.84 67.84 67.10 65.68 63.72 61.40 58.94 56.58 54.52 52.93 51.91 51.48 51.59 52.10 52.85 53.62 54.21 54.44 54.18 53.38 52.06 50.32 48.33 46.29 44.44 43.00 42.16 42.03 42.68 44.07 46.10 48.60 51.37 54.17 56.80 59.11 60.97 62.37 63.35 64.03 64.59 65.24 66.19 67.62 69.68 72.43
106.40 103.56 100.82 98.41 96.50 95.16 94.39 94.08 94.06 94.09 93.93 93.32 92.06 90.02 87.16 83.52 79.25 74.55 69.69 64.95 60.57 56.76 53.67 51.33 49.70 48.63 47.93 47.35 46.65 45.59 44.03 41.87 39.12 35.88 32.32 28.68 25.23 22.23 19.91 18.42 17.84 18.15 19.24 20.91 22.92 25.01 26.92 28.45 29.45 29.86 29.74 29.19 28.43 27.68 27.20 27.23 27.92 29.40 31.65 34.61 38.09 41.87 45.67 49.23 52.30 54.69 56.32 57.17 57.33 56.97 56.30 55.60 55.09 54.99 55.45 56.52 58.16 60.26 62.62 65.00 67.12 68.75 69.70 69.83 69.11 67.61 65.47 62.92 60.21 57.62 55.39 53.72 52.71 52.40 52.72 53.51 54.55 55.62 56.45 56.83 56.63 55.76 54.25 52.22 49.87 47.43 45.19 43.40 42.28 41.98 42.56 43.99 46.14 48.81 51.76 54.73 57.47 59.79 61.57 62.77 63.46 63.77 63.92 64.16 64.73 65.86 67.73 70.40
106.06 103.24 100.54 98.19 96.38 95.17 94.56 94.44 94.63 94.88 94.92 94.49 93.39 91.47 88.68 85.07 80.79 76.06 71.15 66.35 61.94 58.11 55.03 52.72 51.14 50.14 49.51 49.00 48.35 47.32 45.74 43.52 40.66 37.28 33.55 29.72 26.09 22.91 20.43 18.81 18.14 18.39 19.44 21.10 23.11 25.20 27.10 28.59 29.51 29.83 29.57 28.88 27.96 27.05 26.44 26.35 26.97 28.41 30.68 33.69 37.26 41.15 45.08 48.75 51.92 54.40 56.08 56.95 57.11 56.74 56.06 55.34 54.84 54.78 55.31 56.49 58.29 60.57 63.12 65.70 68.03 69.84 70.93 71.17 70.52 69.05 66.92 64.34 61.60 58.98 56.74 55.07 54.09 53.84 54.24 55.12 56.27 57.42 58.32 58.74 58.52 57.60 55.99 53.83 51.31 48.70 46.27 44.30 43.03 42.60 43.08 44.44 46.55 49.20 52.12 55.06 57.75 59.99 61.66 62.71 63.22 63.33 63.28 63.31 63.69 64.66 66.40 68.99
105.64 103.06 100.59 98.45 96.80 95.71 95.17 95.10 95.29 95.54 95.57 95.16 94.09 92.24 89.56 86.09 81.98 77.44 72.71 68.08 63.80 60.06 57.01 54.69 53.04 51.94 51.18 50.52 49.72 48.57 46.89 44.61 41.74 38.36 34.66 30.87 27.27 24.10 21.60 19.91 19.13 19.22 20.09 21.53 23.32 25.19 26.89 28.22 29.04 29.29 29.02 28.35 27.47 26.63 26.07 26.03 26.66 28.09 30.30 33.23 36.69 40.46 44.28 47.87 50.99 53.47 55.20 56.18 56.48 56.29 55.81 55.29 54.98 55.08 55.74 57.01 58.85 61.14 63.69 66.25 68.56 70.38 71.51 71.83 71.30 69.99 68.04 65.66 63.12 60.67 58.57 57.00 56.08 55.82 56.16 56.95 57.99 59.01 59.79 60.11 59.82 58.87 57.26 55.12 52.65 50.08 47.69 45.73 44.42 43.92 44.28 45.46 47.36 49.76 52.45 55.14 57.62 59.68 61.20 62.16 62.62 62.72 62.66 62.71 63.09 64.05 65.74 68.25
105.14 103.02 100.96 99.15 97.72 96.74 96.20 96.02 96.04 96.07 95.90 95.33 94.19 92.37 89.83 86.62 82.85 78.69 74.37 70.10 66.11 62.57 59.59 57.20 55.38 54.00 52.91 51.91 50.79 49.37 47.53 45.19 42.37 39.14 35.66 32.13 28.76 25.78 23.38 21.70 20.78 20.63 21.15 22.19 23.54 24.99 26.33 27.40 28.06 28.28 28.10 27.61 26.98 26.41 26.10 26.24 26.97 28.39 30.48 33.19 36.36 39.81 43.30 46.62 49.55 51.95 53.73 54.88 55.47 55.63 55.56 55.44 55.49 55.87 56.70 58.03 59.81 61.96 64.30 66.63 68.73 70.40 71.47 71.84 71.49 70.45 68.85 66.88 64.74 62.67 60.86 59.48 58.62 58.30 58.46 58.99 59.70 60.40 60.89 60.99 60.57 59.60 58.08 56.12 53.89 51.58 49.43 47.65 46.43 45.90 46.10 47.01 48.53 50.51 52.73 55.00 57.10 58.88 60.24 61.16 61.68 61.94 62.09 62.35 62.92 64.00 65.71 68.13
104.57 103.07 101.57 100.20 99.06 98.18 97.57 97.15 96.83 96.48 95.94 95.08 93.77 91.95 89.59 86.72 83.43 79.83 76.09 72.36 68.81 65.54 62.66 60.17 58.08 56.29 54.70 53.18 51.59 49.80 47.74 45.34 42.64 39.68 36.58 33.47 30.52 27.89 25.70 24.06 23.01 22.54 22.59 23.05 23.79 24.66 25.50 26.20 26.68 26.90 26.89 26.72 26.50 26.36 26.45 26.90 27.81 29.22 31.14 33.52 36.25 39.19 42.18 45.06 47.68 49.94 51.76 53.14 54.13 54.81 55.31 55.76 56.31 57.06 58.10 59.46 61.11 62.98 64.95 66.87 68.60 69.98 70.91 71.31 71.16 70.49 69.39 68.00 66.45 64.91 63.52 62.40 61.62 61.19 61.07 61.19 61.42 61.62 61.67 61.44 60.85 59.87 58.52 56.87 55.04 53.18 51.44 49.99 48.96 48.43 48.46 49.01 50.03 51.41 53.01 54.67 56.27 57.70 58.88 59.79 60.48 61.03 61.55 62.20 63.12 64.42 66.22 68.55
103.94 103.17 102.33 101.48 100.66 99.88 99.14 98.41 97.65 96.79 95.76 94.51 92.98 91.13 88.97 86.51 83.79 80.88 77.85 74.78 71.75 68.83 66.06 63.46 61.03 58.73 56.54 54.38 52.22 49.98 47.65 45.21 42.67 40.07 37.46 34.91 32.50 30.31 28.42 26.86 25.65 24.81 24.31 24.09 24.10 24.25 24.50 24.78 25.04 25.28 25.51 25.75 26.05 26.47 27.07 27.91 29.03 30.44 32.15 34.12 36.29 38.60 40.96 43.29 45.52 47.58 49.45 51.10 52.56 53.86 55.04 56.18 57.32 58.52 59.80 61.17 62.63 64.13 65.60 67.00 68.23 69.24 69.96 70.37 70.45 70.22 69.73 69.03 68.20 67.31 66.43 65.63 64.93 64.35 63.88 63.49 63.12 62.72 62.23 61.60 60.81 59.84 58.71 57.46 56.15 54.86 53.66 52.64 51.87 51.38 51.21 51.35 51.78 52.45 53.29 54.25 55.26 56.27 57.25 58.19 59.12 60.06 61.08 62.23 63.59 65.21 67.13 69.36
103.23 103.26 103.13 102.83 102.34 101.65 100.76 99.68 98.42 97.00 95.44 93.76 91.97 90.10 88.15 86.12 84.03 81.85 79.60 77.25 74.80 72.25 69.61 66.88 64.09 61.25 58.40 55.57 52.78 50.07 47.46 44.98 42.63 40.42 38.35 36.42 34.61 32.93 31.36 29.90 28.55 27.31 26.21 25.26 24.47 23.87 23.47 23.29 23.34 23.61 24.09 24.78 25.65 26.68 27.84 29.11 30.46 31.88 33.35 34.87 36.43 38.05 39.71 41.44 43.23 45.07 46.97 48.92 50.88 52.84 54.76 56.63 58.41 60.07 61.60 62.99 64.22 65.29 66.23 67.03 67.72 68.30 68.80 69.21 69.54 69.78 69.94 69.99 69.94 69.75 69.43 68.97 68.36 67.63 66.78 65.83 64.81 63.75 62.68 61.63 60.62 59.67 58.79 57.98 57.25 56.59 56.00 55.46 54.98 54.55 54.18 53.89 53.68 53.58 53.62 53.82 54.19 54.76 55.54 56.53 57.72 59.10 60.66 62.38 64.23 66.20 68.25 70.39
102.46 103.26 103.83 104.06 103.90 103.31 102.28 100.86 99.12 97.15 95.07 92.96 90.93 89.04 87.30 85.71 84.23 82.79 81.30 79.66 77.79 75.61 73.11 70.26 67.12 63.76 60.27 56.78 53.39 50.22 47.35 44.83 42.67 40.85 39.32 38.00 36.79 35.60 34.35 32.98 31.49 29.87 28.19 26.51 24.95 23.60 22.57 21.95 21.77 22.06 22.80 23.92 25.35 26.96 28.67 30.35 31.92 33.33 34.56 35.64 36.60 37.52 38.50 39.63 40.98 42.61 44.54 46.76 49.21 51.81 54.46 57.04 59.43 61.55 63.32 64.71 65.72 66.39 66.79 67.02 67.17 67.34 67.61 68.02 68.60 69.31 70.11 70.90 71.61 72.12 72.35 72.22 71.72 70.83 69.61 68.13 66.48 64.79 63.16 61.70 60.48 59.55 58.92 58.56 58.40 58.36 58.36 58.30 58.10 57.73 57.18 56.45 55.63 54.79 54.04 53.49 53.24 53.38 53.96 54.98 56.43 58.24 60.33 62.60 64.92 67.22 69.41 71.44
101.63 103.11 104.30 105.02 105.16 104.66 103.52 101.82 99.67 97.25 94.72 92.27 90.05 88.15 86.61 85.42 84.50 83.72 82.91 81.91 80.55 78.72 76.34 73.41 69.98 66.17 62.14 58.08 54.17 50.60 47.50 44.95 42.96 41.49 40.43 39.64 38.94 38.17 37.20 35.92 34.29 32.33 30.12 27.81 25.55 23.54 21.95 20.91 20.53 20.82 21.77 23.26 25.15 27.27 29.43 31.46 33.21 34.61 35.62 36.29 36.71 37.03 37.40 37.99 38.96 40.39 42.34 44.79 47.67 50.83 54.11 57.32 60.26 62.78 64.76 66.16 66.98 67.30 67.25 66.98 66.67 66.50 66.58 67.01 67.81 68.95 70.32 71.78 73.16 74.29 75.01 75.20 74.79 73.79 72.26 70.32 68.13 65.89 63.78 61.97 60.58 59.67 59.27 59.29 59.63 60.14 60.65 61.00 61.06 60.74 60.00 58.90 57.53 56.03 54.58 53.36 52.56 52.31 52.69 53.74 55.39 57.56 60.10 62.82 65.54 68.11 70.40 72.33
100.73 102.76 104.43 105.55 105.94 105.54 104.35 102.47 100.05 97.31 94.49 91.81 89.47 87.60 86.25 85.39 84.92 84.66 84.40 83.90 82.96 81.41 79.15 76.17 72.54 68.41 63.98 59.50 55.22 51.36 48.09 45.52 43.66 42.44 41.73 41.32 41.00 40.55 39.76 38.52 36.77 34.53 31.92 29.10 26.30 23.77 21.73 20.36 19.79 20.07 21.14 22.88 25.10 27.57 30.05 32.31 34.18 35.54 36.37 36.72 36.72 36.56 36.46 36.65 37.31 38.59 40.55 43.18 46.38 49.96 53.72 57.40 60.76 63.59 65.75 67.17 67.87 67.94 67.57 66.95 66.32 65.91 65.88 66.34 67.34 68.82 70.64 72.63 74.55 76.17 77.28 77.73 77.42 76.35 74.60 72.33 69.76 67.11 64.65 62.59 61.07 60.20 59.96 60.27 60.99 61.91 62.80 63.45 63.68 63.38 62.50 61.10 59.29 57.27 55.27 53.53 52.28 51.71 51.92 52.94 54.72 57.13 59.96 63.00 65.99 68.73 71.06 72.87
99.78 102.16 104.15 105.53 106.12 105.82 104.66 102.73 100.21 97.35 94.41 91.66 89.31 87.51 86.33 85.71 85.55 85.64 85.73 85.56 84.90 83.54 81.39 78.42 74.71 70.42 65.79 61.09 56.60 52.59 49.23 46.65 44.85 43.77 43.25 43.05 42.92 42.62 41.92 40.67 38.82 36.39 33.51 30.36 27.22 24.35 22.00 20.40 19.69 19.90 21.00 22.84 25.20 27.83 30.45 32.81 34.70 36.01 36.70 36.84 36.57 36.12 35.74 35.68 36.15 37.34 39.30 42.03 45.41 49.24 53.28 57.24 60.86 63.89 66.17 67.63 68.29 68.26 67.73 66.95 66.18 65.67 65.62 66.15 67.30 69.02 71.14 73.47 75.74 77.68 79.05 79.68 79.46 78.39 76.55 74.12 71.35 68.51 65.87 63.67 62.10 61.24 61.10 61.58 62.51 63.64 64.74 65.54 65.85 65.53 64.54 62.93 60.84 58.49 56.13 54.05 52.50 51.70 51.76 52.71 54.51 57.00 59.95 63.10 66.19 68.97 71.26 72.96
98.78 101.28 103.40 104.91 105.62 105.44 104.39 102.55 100.14 97.37 94.53 91.89 89.65 87.97 86.91 86.44 86.42 86.65 86.88 86.85 86.30 85.06 82.99 80.09 76.42 72.16 67.54 62.85 58.37 54.35 50.99 48.40 46.61 45.54 45.01 44.81 44.67 44.33 43.59 42.29 40.36 37.84 34.84 31.58 28.30 25.30 22.83 21.11 20.29 20.41 21.42 23.18 25.47 28.04 30.59 32.88 34.71 35.94 36.55 36.60 36.25 35.72 35.26 35.13 35.56 36.71 38.67 41.41 44.81 48.69 52.79 56.82 60.50 63.60 65.94 67.46 68.18 68.20 67.73 67.00 66.29 65.85 65.88 66.50 67.76 69.59 71.85 74.30 76.70 78.76 80.25 80.98 80.84 79.84 78.05 75.66 72.91 70.08 67.46 65.27 63.71 62.87 62.75 63.25 64.19 65.33 66.43 67.21 67.49 67.12 66.05 64.35 62.15 59.67 57.18 54.97 53.28 52.35 52.28 53.12 54.81 57.20 60.05 63.10 66.09 68.76 70.94 72.51
97.73 100.13 102.19 103.68 104.44 104.39 103.53 101.95 99.83 97.38 94.86 92.49 90.49 88.98 88.02 87.58 87.53 87.70 87.86 87.76 87.17 85.93 83.93 81.15 77.67 73.63 69.25 64.79 60.51 56.64 53.37 50.80 48.94 47.73 47.01 46.59 46.23 45.69 44.78 43.36 41.38 38.86 35.91 32.74 29.56 26.64 24.22 22.50 21.61 21.58 22.39 23.90 25.91 28.19 30.48 32.54 34.19 35.33 35.91 36.00 35.75 35.34 35.02 35.02 35.54 36.73 38.66 41.32 44.60 48.33 52.25 56.12 59.68 62.72 65.07 66.67 67.54 67.77 67.55 67.10 66.66 66.45 66.67 67.41 68.73 70.56 72.76 75.13 77.44 79.43 80.88 81.62 81.56 80.69 79.09 76.93 74.43 71.85 69.43 67.40 65.93 65.10 64.91 65.28 66.04 66.98 67.86 68.46 68.59 68.12 67.02 65.34 63.20 60.81 58.42 56.28 54.63 53.66 53.50 54.17 55.63 57.73 60.27 63.00 65.69 68.11 70.08 71.53
96.63 98.73 100.55 101.89 102.64 102.72 102.13 100.95 99.30 97.37 95.35 93.43 91.77 90.47 89.59 89.08 88.86 88.78 88.66 88.31 87.54 86.22 84.27 81.67 78.49 74.84 70.90 66.89 63.00 59.42 56.32 53.77 51.78 50.31 49.24 48.40 47.62 46.71 45.52 43.94 41.92 39.49 36.75 33.85 30.98 28.34 26.13 24.51 23.58 23.39 23.89 24.99 26.52 28.30 30.13 31.82 33.21 34.23 34.84 35.09 35.09 35.01 35.02 35.31 36.04 37.33 39.24 41.74 44.75 48.13 51.68 55.19 58.46 61.30 63.61 65.31 66.41 67.00 67.22 67.24 67.25 67.43 67.93 68.83 70.16 71.87 73.85 75.95 77.96 79.69 80.97 81.64 81.65 80.99 79.72 77.97 75.92 73.77 71.74 70.00 68.68 67.86 67.53 67.63 68.03 68.57 69.06 69.31 69.19 68.59 67.49 65.93 64.02 61.92 59.83 57.95 56.49 55.59 55.36 55.81 56.92 58.57 60.60 62.82 65.02 67.05 68.75 70.07
95.49 97.13 98.56 99.65 100.33 100.55 100.29 99.61 98.59 97.34 95.98 94.63 93.40 92.35 91.51 90.86 90.35 89.87 89.32 88.56 87.50 86.03 84.11 81.74 78.95 75.84 72.50 69.10 65.75 62.59 59.72 57.19 55.03 53.20 51.64 50.24 48.89 47.48 45.91 44.13 42.09 39.84 37.42 34.95 32.54 30.34 28.47 27.03 26.10 25.70 25.82 26.37 27.28 28.41 29.62 30.81 31.88 32.76 33.43 33.94 34.33 34.72 35.22 35.94 36.98 38.42 40.28 42.56 45.19 48.07 51.07 54.06 56.90 59.46 61.67 63.48 64.90 65.96 66.76 67.41 68.02 68.70 69.56 70.63 71.94 73.44 75.08 76.74 78.30 79.63 80.62 81.17 81.24 80.83 79.99 78.79 77.35 75.82 74.31 72.96 71.85 71.03 70.51 70.24 70.14 70.12 70.06 69.85 69.39 68.64 67.57 66.22 64.66 63.00 61.38 59.93 58.77 58.02 57.73 57.94 58.61 59.68 61.04 62.58 64.16 65.68 67.06 68.23
94.31 95.38 96.32 97.10 97.68 98.03 98.14 98.04 97.73 97.25 96.65 95.96 95.22 94.44 93.63 92.80 91.91 90.94 89.85 88.60 87.16 85.51 83.62 81.50 79.18 76.68 74.06 71.37 68.66 65.99 63.40 60.91 58.55 56.30 54.16 52.10 50.09 48.10 46.10 44.09 42.05 40.02 38.00 36.06 34.23 32.56 31.11 29.91 29.00 28.38 28.05 27.99 28.17 28.53 29.05 29.66 30.35 31.08 31.85 32.66 33.53 34.49 35.57 36.80 38.22 39.83 41.65 43.66 45.82 48.11 50.46 52.82 55.13 57.34 59.43 61.36 63.12 64.73 66.20 67.58 68.88 70.15 71.40 72.66 73.92 75.17 76.37 77.50 78.50 79.33 79.96 80.35 80.48 80.36 80.01 79.45 78.74 77.92 77.04 76.15 75.28 74.47 73.71 73.00 72.32 71.65 70.94 70.19 69.35 68.42 67.41 66.32 65.20 64.09 63.04 62.11 61.34 60.79 60.47 60.40 60.58 60.98 61.58 62.33 63.20 64.15 65.15 66.19
93.10 93.55 93.98 94.42 94.88 95.36 95.86 96.34 96.78 97.11 97.30 97.30 97.06 96.55 95.78 94.73 93.45 91.95 90.30 88.53 86.69 84.83 82.97 81.12 79.29 77.45 75.58 73.65 71.62 69.47 67.17 64.73 62.16 59.48 56.74 53.99 51.28 48.69 46.25 44.00 41.98 40.18 38.60 37.22 36.00 34.91 33.91 32.98 32.09 31.25 30.46 29.75 29.16 28.73 28.50 28.52 28.81 29.39 30.26 31.39 32.76 34.32 36.01 37.78 39.59 41.39 43.15 44.87 46.54 48.19 49.85 51.53 53.29 55.13 57.07 59.11 61.24 63.41 65.59 67.72 69.75 71.62 73.29 74.73 75.93 76.90 77.64 78.20 78.60 78.91 79.15 79.36 79.55 79.74 79.91 80.03 80.07 80.00 79.78 79.38 78.78 77.97 76.96 75.80 74.51 73.15 71.78 70.46 69.23 68.12 67.17 66.38 65.73 65.20 64.77 64.40 64.06 63.72 63.37 63.02 62.68 62.39 62.20 62.13 62.26 62.62 63.23 64.13
91.85 91.73 91.67 91.78 92.12 92.73 93.59 94.64 95.78 96.89 97.84 98.48 98.73 98.49 97.75 96.52 94.86 92.88 90.69 88.44 86.24 84.19 82.37 80.79 79.43 78.22 77.07 75.87 74.49 72.84 70.84 68.45 65.68 62.60 59.30 55.90 52.55 49.39 46.53 44.07 42.06 40.49 39.32 38.48 37.84 37.30 36.73 36.04 35.17 34.11 32.88 31.56 30.24 29.04 28.11 27.55 27.46 27.89 28.84 30.27 32.11 34.22 36.49 38.77 40.93 42.89 44.60 46.03 47.23 48.27 49.26 50.30 51.52 53.00 54.81 56.95 59.41 62.12 64.96 67.81 70.52 72.96 75.03 76.65 77.79 78.49 78.80 78.82 78.67 78.48 78.36 78.41 78.66 79.14 79.81 80.58 81.35 82.00 82.41 82.48 82.13 81.33 80.11 78.51 76.65 74.66 72.66 70.81 69.20 67.94 67.05 66.54 66.34 66.37 66.53 66.69 66.74 66.61 66.23 65.61 64.79 63.84 62.88 62.04 61.46 61.24 61.49 62.24
90.59 89.98 89.51 89.35 89.61 90.34 91.52 93.05 94.80 96.58 98.17 99.39 100.05 100.06 99.37 98.00 96.06 93.69 91.08 88.44 85.95 83.78 82.00 80.67 79.72 79.07 78.55 77.98 77.16 75.95 74.20 71.87 68.96 65.55 61.78 57.85 53.96 50.32 47.12 44.48 42.47 41.10 40.27 39.87 39.72 39.62 39.40 38.91 38.05 36.79 35.18 33.32 31.37 29.52 27.97 26.91 26.48 26.76 27.77 29.44 31.64 34.21 36.94 39.62 42.08 44.16 45.80 46.98 47.77 48.30 48.71 49.21 49.97 51.14 52.83 55.06 57.81 60.96 64.36 67.81 71.10 74.03 76.43 78.21 79.33 79.81 79.76 79.34 78.74 78.15 77.75 77.67 78.00 78.74 79.84 81.17 82.57 83.84 84.80 85.27 85.15 84.38 82.97 81.03 78.70 76.18 73.66 71.36 69.46 68.06 67.23 66.94 67.12 67.62 68.26 68.86 69.24 69.27 68.86 68.00 66.75 65.24 63.62 62.12 60.91 60.20 60.11 60.72
89.30 88.36 87.62 87.29 87.51 88.34 89.76 91.67 93.88 96.16 98.24 99.89 100.89 101.11 100.49 99.06 96.95 94.35 91.48 88.61 85.96 83.73 82.03 80.90 80.29 80.06 80.01 79.91 79.52 78.64 77.10 74.83 71.83 68.21 64.13 59.82 55.56 51.59 48.15 45.38 43.37 42.12 41.53 41.43 41.60 41.80 41.81 41.43 40.55 39.13 37.22 34.95 32.53 30.19 28.18 26.74 26.03 26.18 27.19 28.99 31.43 34.29 37.32 40.26 42.89 45.04 46.61 47.60 48.08 48.22 48.22 48.32 48.75 49.70 51.30 53.59 56.54 60.01 63.82 67.71 71.42 74.70 77.37 79.27 80.38 80.74 80.47 79.77 78.87 78.02 77.44 77.31 77.71 78.67 80.10 81.86 83.72 85.46 86.82 87.61 87.67 86.94 85.43 83.26 80.61 77.72 74.85 72.25 70.13 68.64 67.84 67.72 68.15 68.97 69.94 70.83 71.43 71.55 71.09 70.04 68.46 66.52 64.41 62.39 60.72 59.62 59.26 59.73
88.00 86.92 86.08 85.69 85.93 86.85 88.44 90.57 93.05 95.62 97.99 99.91 101.13 101.52 101.00 99.61 97.49 94.84 91.92 89.00 86.34 84.15 82.56 81.59 81.20 81.22 81.46 81.64 81.51 80.83 79.43 77.22 74.21 70.50 66.29 61.83 57.40 53.28 49.71 46.88 44.87 43.66 43.16 43.18 43.48 43.79 43.87 43.51 42.58 41.03 38.93 36.41 33.71 31.08 28.79 27.11 26.22 26.25 27.21 29.02 31.51 34.46 37.58 40.61 43.28 45.42 46.92 47.78 48.09 48.02 47.80 47.69 47.95 48.78 50.34 52.66 55.71 59.35 63.36 67.48 71.41 74.90 77.72 79.72 80.86 81.20 80.86 80.07 79.07 78.15 77.54 77.42 77.92 79.03 80.67 82.67 84.81 86.82 88.42 89.40 89.58 88.90 87.37 85.12 82.34 79.30 76.27 73.53 71.31 69.78 69.00 68.94 69.48 70.43 71.54 72.55 73.21 73.33 72.81 71.62 69.84 67.63 65.23 62.91 60.95 59.59 59.03 59.38
86.69 85.68 84.92 84.62 84.93 85.92 87.58 89.77 92.32 94.96 97.41 99.41 100.74 101.24 100.85 99.61 97.65 95.16 92.41 89.66 87.15 85.11 83.64 82.78 82.49 82.59 82.90 83.14 83.07 82.45 81.11 78.97 76.03 72.40 68.26 63.86 59.48 55.40 51.86 49.03 46.99 45.75 45.18 45.12 45.33 45.55 45.53 45.08 44.06 42.43 40.25 37.67 34.90 32.20 29.85 28.08 27.10 27.02 27.87 29.55 31.92 34.73 37.73 40.63 43.20 45.25 46.68 47.49 47.76 47.67 47.45 47.35 47.61 48.45 50.00 52.33 55.37 59.00 63.01 67.12 71.07 74.58 77.44 79.50 80.72 81.15 80.92 80.25 79.38 78.58 78.08 78.08 78.67 79.86 81.58 83.64 85.84 87.89 89.55 90.58 90.82 90.21 88.76 86.58 83.88 80.91 77.94 75.25 73.06 71.54 70.74 70.65 71.14 72.02 73.04 73.96 74.53 74.57 73.96 72.69 70.83 68.55 66.07 63.67 61.62 60.17 59.50 59.71
85.37 84.65 84.15 84.05 84.50 85.55 87.18 89.29 91.70 94.18 96.49 98.40 99.71 100.28 100.05 99.06 97.42 95.31 92.94 90.56 88.37 86.57 85.26 84.47 84.14 84.16 84.32 84.42 84.22 83.51 82.17 80.09 77.30 73.89 70.02 65.91 61.81 57.96 54.58 51.81 49.75 48.37 47.59 47.26 47.17 47.09 46.81 46.15 45.01 43.34 41.21 38.73 36.10 33.56 31.33 29.64 28.66 28.50 29.16 30.59 32.64 35.11 37.76 40.34 42.66 44.54 45.90 46.73 47.12 47.20 47.18 47.28 47.73 48.69 50.29 52.58 55.51 58.97 62.76 66.65 70.39 73.75 76.54 78.62 79.97 80.61 80.66 80.31 79.78 79.30 79.07 79.26 79.96 81.16 82.81 84.76 86.79 88.68 90.20 91.16 91.40 90.87 89.58 87.64 85.22 82.54 79.85 77.39 75.36 73.90 73.06 72.83 73.10 73.71 74.44 75.08 75.40 75.26 74.54 73.25 71.45 69.28 66.94 64.68 62.74 61.34 60.63 60.72
84.05 83.80 83.71 83.94 84.58 85.67 87.20 89.07 91.17 93.30 95.28 96.94 98.12 98.71 98.68 98.03 96.86 95.30 93.51 91.67 89.95 88.48 87.35 86.57 86.12 85.88 85.73 85.49 84.99 84.08 82.66 80.66 78.09 75.03 71.60 67.98 64.35 60.90 57.79 55.16 53.05 51.46 50.34 49.57 48.98 48.43 47.74 46.79 45.49 43.83 41.84 39.62 37.32 35.12 33.20 31.73 30.83 30.60 31.03 32.09 33.66 35.59 37.69 39.79 41.73 43.37 44.66 45.58 46.20 46.62 46.99 47.48 48.25 49.44 51.13 53.35 56.08 59.21 62.60 66.06 69.42 72.48 75.10 77.17 78.67 79.62 80.11 80.26 80.26 80.27 80.44 80.90 81.70 82.87 84.33 85.99 87.67 89.21 90.44 91.20 91.39 90.95 89.91 88.34 86.38 84.20 81.98 79.90 78.13 76.78 75.88 75.42 75.34 75.50 75.76 75.93 75.87 75.47 74.63 73.37 71.74 69.84 67.84 65.92 64.26 63.03 62.37 62.33
82.73 83.08 83.54 84.17 85.04 86.16 87.52 89.06 90.70 92.33 93.84 95.13 96.10 96.68 96.85 96.62 96.02 95.15 94.08 92.92 91.77 90.71 89.77 88.98 88.31 87.71 87.10 86.38 85.46 84.26 82.71 80.79 78.49 75.89 73.03 70.05 67.03 64.11 61.38 58.92 56.76 54.92 53.35 52.01 50.80 49.63 48.43 47.11 45.64 44.01 42.24 40.40 38.57 36.87 35.39 34.23 33.49 33.19 33.36 33.95 34.92 36.16 37.58 39.06 40.52 41.88 43.09 44.15 45.09 45.97 46.87 47.88 49.10 50.58 52.39 54.53 56.97 59.66 62.51 65.40 68.22 70.87 73.24 75.28 76.96 78.29 79.32 80.12 80.79 81.41 82.08 82.86 83.79 84.86 86.05 87.29 88.48 89.54 90.34 90.82 90.91 90.58 89.85 88.76 87.39 85.85 84.24 82.68 81.26 80.04 79.06 78.32 77.78 77.37 77.00 76.59 76.05 75.32 74.35 73.17 71.79 70.29 68.77 67.33 66.09 65.14 64.57 64.42
81.43 82.45 83.51 84.60 85.72 86.86 88.00 89.14 90.25 91.29 92.25 93.09 93.80 94.35 94.73 94.95 95.00 94.88 94.62 94.23 93.71 93.08 92.36 91.53 90.60 89.57 88.43 87.15 85.74 84.19 82.49 80.64 78.66 76.56 74.37 72.11 69.80 67.49 65.19 62.93 60.72 58.59 56.52 54.54 52.62 50.78 49.00 47.28 45.62 44.04 42.54 41.15 39.88 38.75 37.79 37.02 36.46 36.11 35.98 36.07 36.35 36.83 37.47 38.27 39.19 40.22 41.36 42.59 43.90 45.31 46.82 48.43 50.15 51.98 53.91 55.95 58.06 60.25 62.46 64.69 66.90 69.05 71.13 73.12 74.99 76.75 78.38 79.90 81.32 82.63 83.85 84.98 86.03 86.99 87.85 88.60 89.22 89.70 90.02 90.17 90.14 89.92 89.53 88.98 88.29 87.48 86.57 85.59 84.57 83.52 82.45 81.39 80.33 79.27 78.21 77.14 76.06 74.97 73.87 72.78 71.72 70.69 69.73 68.87 68.12 67.52 67.08 66.81
80.13 81.85 83.51 85.05 86.42 87.57 88.50 89.22 89.77 90.21 90.59 90.97 91.40 91.92 92.52 93.19 93.88 94.55 95.10 95.48 95.60 95.42 94.91 94.04 92.85 91.38 89.69 87.85 85.94 84.03 82.18 80.42 78.76 77.19 75.67 74.15 72.57 70.88 69.03 66.98 64.73 62.31 59.75 57.11 54.49 51.95 49.59 47.47 45.63 44.11 42.89 41.96 41.25 40.73 40.30 39.93 39.56 39.16 38.73 38.29 37.89 37.59 37.44 37.53 37.91 38.61 39.67 41.06 42.76 44.70 46.82 49.04 51.27 53.44 55.50 57.42 59.20 60.86 62.43 63.97 65.54 67.19 68.96 70.88 72.95 75.13 77.38 79.63 81.80 83.81 85.59 87.08 88.25 89.09 89.61 89.86 89.89 89.79 89.60 89.41 89.26 89.16 89.13 89.13 89.13 89.06 88.87 88.49 87.88 87.00 85.86 84.47 82.89 81.17 79.40 77.67 76.05 74.60 73.38 72.40 71.66 71.12 70.74 70.47 70.23 69.99 69.68 69.31
78.85 81.19 83.41 85.37 86.95 88.11 88.83 89.17 89.22 89.10 88.96 88.92 89.11 89.59 90.40 91.49 92.78 94.16 95.48 96.57 97.29 97.54 97.22 96.34 94.92 93.05 90.87 88.53 86.18 83.96 81.98 80.31 78.96 77.88 76.99 76.16 75.27 74.15 72.72 70.87 68.60 65.91 62.90 59.68 56.41 53.24 50.35 47.86 45.86 44.39 43.43 42.91 42.73 42.74 42.81 42.79 42.58 42.13 41.42 40.50 39.46 38.43 37.55 36.98 36.85 37.24 38.21 39.74 41.77 44.20 46.87 49.63 52.32 54.79 56.96 58.77 60.23 61.40 62.37 63.27 64.25 65.44 66.93 68.79 71.03 73.60 76.41 79.32 82.19 84.84 87.14 88.96 90.24 90.97 91.19 90.98 90.49 89.85 89.22 88.73 88.47 88.49 88.79 89.31 89.95 90.58 91.05 91.23 91.00 90.29 89.08 87.41 85.35 83.04 80.63 78.29 76.18 74.41 73.07 72.19 71.74 71.66 71.81 72.08 72.31 72.38 72.20 71.71
77.60 80.43 83.09 85.37 87.14 88.31 88.87 88.90 88.55 87.99 87.44 87.08 87.09 87.56 88.54 89.99 91.79 93.77 95.72 97.41 98.64 99.24 99.12 98.24 96.67 94.51 91.97 89.24 86.56 84.11 82.06 80.49 79.40 78.75 78.38 78.14 77.80 77.17 76.09 74.42 72.13 69.25 65.88 62.19 58.40 54.74 51.42 48.63 46.49 45.05 44.29 44.10 44.33 44.76 45.20 45.45 45.37 44.85 43.90 42.56 40.99 39.35 37.86 36.74 36.17 36.29 37.16 38.79 41.07 43.86 46.96 50.14 53.17 55.88 58.11 59.82 61.01 61.77 62.25 62.64 63.14 63.95 65.21 67.02 69.39 72.28 75.55 79.01 82.44 85.62 88.34 90.43 91.82 92.48 92.47 91.92 91.02 89.97 89.00 88.28 87.95 88.08 88.67 89.62 90.79 92.00 93.02 93.66 93.76 93.20 91.95 90.05 87.62 84.84 81.92 79.10 76.59 74.56 73.12 72.32 72.11 72.37 72.94 73.63 74.22 74.53 74.43 73.84
76.37 79.52 82.46 84.96 86.84 88.01 88.48 88.33 87.73 86.91 86.10 85.56 85.47 85.97 87.10 88.82 90.98 93.39 95.79 97.91 99.52 100.40 100.45 99.63 97.99 95.70 92.96 90.03 87.18 84.63 82.57 81.10 80.23 79.88 79.90 80.06 80.12 79.83 79.00 77.47 75.19 72.19 68.60 64.61 60.49 56.49 52.89 49.90 47.66 46.24 45.59 45.59 46.06 46.74 47.40 47.80 47.75 47.16 46.01 44.38 42.41 40.34 38.42 36.90 36.00 35.91 36.68 38.33 40.74 43.74 47.08 50.50 53.73 56.56 58.81 60.43 61.43 61.91 62.06 62.10 62.28 62.83 63.94 65.72 68.19 71.29 74.87 78.70 82.51 86.05 89.07 91.37 92.85 93.49 93.35 92.61 91.47 90.19 89.02 88.19 87.85 88.09 88.89 90.16 91.71 93.31 94.72 95.69 96.01 95.57 94.31 92.28 89.62 86.54 83.30 80.16 77.39 75.19 73.68 72.92 72.84 73.32 74.14 75.08 75.87 76.32 76.23 75.55
75.17 78.42 81.46 84.03 85.96 87.15 87.60 87.40 86.74 85.85 85.00 84.43 84.36 84.92 86.17 88.04 90.41 93.04 95.68 98.04 99.86 100.93 101.12 100.40 98.83 96.57 93.84 90.93 88.09 85.58 83.60 82.24 81.52 81.35 81.56 81.93 82.18 82.07 81.36 79.92 77.67 74.65 71.00 66.91 62.67 58.56 54.85 51.77 49.47 48.02 47.38 47.42 47.93 48.66 49.35 49.74 49.65 48.98 47.69 45.88 43.70 41.41 39.25 37.52 36.44 36.19 36.86 38.45 40.85 43.85 47.22 50.67 53.93 56.75 58.97 60.52 61.41 61.76 61.77 61.66 61.71 62.17 63.22 65.00 67.52 70.71 74.42 78.40 82.39 86.09 89.26 91.67 93.23 93.91 93.79 93.02 91.86 90.55 89.37 88.55 88.27 88.60 89.53 90.96 92.70 94.50 96.10 97.23 97.68 97.31 96.07 94.02 91.30 88.12 84.77 81.53 78.66 76.38 74.84 74.07 74.01 74.53 75.41 76.39 77.22 77.65 77.52 76.73
74.01 77.13 80.07 82.57 84.48 85.68 86.19 86.10 85.58 84.84 84.14 83.73 83.79 84.45 85.77 87.70 90.09 92.74 95.39 97.77 99.63 100.78 101.09 100.53 99.15 97.11 94.61 91.93 89.31 87.00 85.17 83.93 83.28 83.15 83.37 83.73 83.97 83.84 83.14 81.73 79.53 76.60 73.05 69.08 64.95 60.94 57.30 54.25 51.94 50.44 49.70 49.60 49.95 50.50 51.01 51.25 51.03 50.25 48.89 47.04 44.84 42.54 40.38 38.62 37.50 37.17 37.74 39.18 41.40 44.22 47.39 50.65 53.74 56.43 58.56 60.05 60.94 61.32 61.38 61.35 61.47 62.00 63.10 64.89 67.40 70.56 74.21 78.13 82.06 85.72 88.87 91.32 92.94 93.73 93.74 93.15 92.17 91.05 90.05 89.39 89.23 89.64 90.62 92.07 93.79 95.57 97.13 98.25 98.70 98.37 97.20 95.24 92.63 89.58 86.34 83.20 80.41 78.17 76.62 75.79 75.64 76.03 76.75 77.56 78.22 78.50 78.23 77.35
72.88 75.67 78.31 80.61 82.42 83.65 84.30 84.45 84.25 83.87 83.53 83.43 83.73 84.54 85.90 87.76 90.01 92.47 94.91 97.12 98.87 100.00 100.40 100.04 98.97 97.32 95.27 93.03 90.82 88.85 87.26 86.14 85.51 85.28 85.33 85.47 85.48 85.17 84.36 82.92 80.81 78.06 74.77 71.12 67.32 63.61 60.22 57.32 55.05 53.45 52.51 52.11 52.10 52.28 52.42 52.35 51.91 51.01 49.64 47.87 45.84 43.74 41.78 40.19 39.16 38.83 39.28 40.50 42.40 44.84 47.60 50.46 53.20 55.62 57.60 59.06 60.03 60.59 60.90 61.15 61.55 62.29 63.53 65.37 67.82 70.82 74.24 77.89 81.54 84.96 87.95 90.33 92.00 92.95 93.25 93.01 92.42 91.70 91.05 90.68 90.70 91.19 92.13 93.44 94.96 96.50 97.84 98.78 99.13 98.79 97.72 95.96 93.63 90.90 88.01 85.18 82.62 80.52 78.99 78.06 77.70 77.78 78.14 78.58 78.89 78.88 78.42 77.43
71.81 74.07 76.26 78.24 79.88 81.13 81.99 82.51 82.78 82.93 83.12 83.47 84.10 85.09 86.46 88.17 90.13 92.22 94.28 96.14 97.64 98.67 99.14 99.03 98.37 97.26 95.82 94.21 92.57 91.06 89.78 88.79 88.10 87.67 87.39 87.14 86.76 86.12 85.09 83.59 81.58 79.09 76.20 73.04 69.76 66.54 63.54 60.89 58.69 56.98 55.74 54.91 54.38 53.99 53.62 53.11 52.38 51.35 50.02 48.45 46.74 45.01 43.43 42.17 41.34 41.07 41.40 42.33 43.79 45.68 47.84 50.12 52.36 54.42 56.20 57.64 58.77 59.65 60.36 61.06 61.89 62.99 64.45 66.35 68.69 71.43 74.47 77.67 80.86 83.87 86.56 88.80 90.51 91.68 92.35 92.62 92.60 92.45 92.32 92.34 92.60 93.15 93.98 95.03 96.19 97.32 98.26 98.87 99.02 98.65 97.71 96.24 94.33 92.12 89.75 87.39 85.22 83.34 81.86 80.79 80.12 79.76 79.59 79.48 79.29 78.87 78.15 77.07
70.77 72.39 74.01 75.57 77.01 78.29 79.40 80.37 81.22 82.03 82.85 83.75 84.78 85.97 87.32 88.81 90.39 91.98 93.52 94.91 96.06 96.92 97.44 97.61 97.44 96.98 96.28 95.41 94.46 93.50 92.57 91.72 90.94 90.22 89.51 88.74 87.86 86.78 85.46 83.87 81.98 79.81 77.42 74.88 72.25 69.64 67.14 64.81 62.71 60.87 59.28 57.93 56.75 55.69 54.67 53.65 52.57 51.41 50.16 48.87 47.58 46.36 45.29 44.46 43.93 43.75 43.96 44.54 45.47 46.70 48.14 49.71 51.34 52.95 54.50 55.94 57.28 58.55 59.79 61.07 62.44 63.98 65.72 67.69 69.89 72.29 74.84 77.46 80.05 82.54 84.83 86.87 88.61 90.04 91.17 92.04 92.71 93.26 93.75 94.24 94.78 95.38 96.06 96.76 97.44 98.03 98.45 98.64 98.53 98.09 97.30 96.20 94.82 93.23 91.52 89.77 88.07 86.49 85.07 83.84 82.79 81.88 81.08 80.30 79.49 78.60 77.57 76.40
69.79 70.68 71.68 72.79 74.00 75.30 76.68 78.13 79.62 81.14 82.66 84.15 85.60 87.00 88.31 89.54 90.68 91.73 92.67 93.53 94.28 94.94 95.51 95.97 96.32 96.55 96.64 96.59 96.39 96.02 95.47 94.76 93.87 92.82 91.62 90.28 88.83 87.27 85.64 83.93 82.17 80.37 78.53 76.66 74.76 72.83 70.88 68.91 66.93 64.95 62.99 61.06 59.19 57.39 55.69 54.10 52.66 51.36 50.22 49.24 48.43 47.78 47.29 46.94 46.75 46.69 46.77 46.99 47.35 47.85 48.50 49.30 50.27 51.40 52.68 54.12 55.70 57.41 59.22 61.13 63.10 65.12 67.17 69.22 71.26 73.28 75.28 77.24 79.17 81.07 82.92 84.73 86.49 88.19 89.81 91.34 92.76 94.06 95.22 96.22 97.06 97.72 98.20 98.51 98.66 98.65 98.49 98.21 97.80 97.29 96.67 95.96 95.16 94.27 93.28 92.20 91.04 89.78 88.45 87.04 85.58 84.09 82.58 81.08 79.61 78.20 76.85 75.59
68.87 69.04 69.42 70.07 71.04 72.36 74.00 75.92 78.04 80.25 82.44 84.52 86.39 87.98 89.26 90.23 90.93 91.42 91.78 92.10 92.46 92.93 93.53 94.28 95.14 96.05 96.94 97.69 98.22 98.44 98.27 97.70 96.71 95.34 93.66 91.77 89.76 87.73 85.78 83.98 82.36 80.91 79.63 78.43 77.25 76.00 74.61 73.00 71.15 69.04 66.71 64.22 61.67 59.15 56.77 54.64 52.83 51.40 50.37 49.70 49.37 49.28 49.36 49.50 49.64 49.69 49.65 49.50 49.29 49.08 48.94 48.98 49.29 49.93 50.95 52.38 54.19 56.33 58.71 61.23 63.79 66.28 68.61 70.73 72.61 74.25 75.69 77.01 78.28 79.58 81.00 82.58 84.35 86.31 88.41 90.59 92.75 94.79 96.61 98.11 99.24 99.95 100.25 100.18 99.80 99.19 98.47 97.72 97.03 96.45 96.00 95.69 95.46 95.26 95.00 94.59 93.95 93.03 91.78 90.21 88.35 86.28 84.09 81.88 79.76 77.84 76.19 74.85
68.00 67.53 67.34 67.58 68.34 69.66 71.53 73.86 76.52 79.34 82.14 84.72 86.95 88.72 89.96 90.71 91.02 91.03 90.88 90.74 90.76 91.06 91.71 92.72 94.04 95.58 97.17 98.66 99.85 100.60 100.79 100.35 99.28 97.65 95.57 93.20 90.71 88.29 86.08 84.20 82.71 81.60 80.81 80.23 79.70 79.06 78.17 76.89 75.15 72.94 70.29 67.31 64.16 61.00 58.02 55.41 53.28 51.73 50.78 50.39 50.47 50.88 51.44 52.01 52.42 52.57 52.40 51.92 51.19 50.32 49.48 48.83 48.53 48.73 49.51 50.92 52.91 55.41 58.28 61.33 64.40 67.29 69.87 72.04 73.76 75.06 76.01 76.75 77.43 78.20 79.22 80.60 82.38 84.57 87.10 89.86 92.68 95.38 97.79 99.74 101.13 101.90 102.04 101.64 100.80 99.69 98.47 97.33 96.39 95.76 95.48 95.52 95.82 96.24 96.63 96.82 96.66 96.03 94.86 93.15 90.96 88.38 85.59 82.75 80.06 77.69 75.76 74.35
67.19 66.21 65.58 65.49 66.07 67.39 69.42 72.05 75.12 78.41 81.66 84.64 87.15 89.05 90.28 90.86 90.89 90.54 90.02 89.54 89.31 89.51 90.21 91.45 93.16 95.20 97.36 99.43 101.16 102.35 102.84 102.53 101.44 99.64 97.28 94.57 91.75 89.05 86.68 84.77 83.41 82.58 82.19 82.09 82.08 81.92 81.42 80.41 78.77 76.48 73.59 70.24 66.63 62.98 59.54 56.54 54.16 52.51 51.61 51.42 51.80 52.56 53.48 54.34 54.94 55.13 54.84 54.08 52.92 51.54 50.13 48.92 48.14 47.97 48.54 49.90 52.01 54.77 57.98 61.42 64.85 68.03 70.78 72.98 74.57 75.59 76.15 76.44 76.66 77.04 77.76 78.97 80.77 83.14 86.01 89.21 92.55 95.77 98.64 100.95 102.56 103.39 103.43 102.79 101.63 100.14 98.57 97.14 96.04 95.40 95.26 95.60 96.31 97.22 98.12 98.79 99.00 98.61 97.52 95.72 93.26 90.31 87.05 83.74 80.62 77.89 75.75 74.27
66.45 65.15 64.23 63.92 64.37 65.67 67.78 70.58 73.89 77.44 80.95 84.17 86.85 88.84 90.08 90.58 90.47 89.93 89.21 88.57 88.24 88.41 89.19 90.61 92.58 94.96 97.51 99.98 102.08 103.58 104.29 104.12 103.07 101.22 98.75 95.90 92.93 90.12 87.69 85.81 84.56 83.94 83.82 84.04 84.36 84.51 84.27 83.42 81.86 79.53 76.51 72.95 69.06 65.11 61.39 58.16 55.61 53.87 52.98 52.87 53.39 54.33 55.42 56.41 57.08 57.26 56.85 55.88 54.43 52.69 50.89 49.31 48.20 47.76 48.16 49.45 51.59 54.46 57.83 61.47 65.08 68.40 71.23 73.41 74.90 75.74 76.07 76.08 76.03 76.16 76.71 77.84 79.65 82.14 85.22 88.70 92.36 95.91 99.08 101.63 103.40 104.29 104.31 103.57 102.24 100.58 98.84 97.27 96.11 95.49 95.47 96.02 97.00 98.23 99.46 100.42 100.89 100.66 99.63 97.77 95.18 92.00 88.48 84.88 81.49 78.56 76.27 74.74
65.77 64.35 63.33 62.93 63.33 64.58 66.68 69.50 72.83 76.43 80.00 83.26 85.99 88.02 89.29 89.81 89.71 89.19 88.49 87.88 87.60 87.84 88.72 90.25 92.37 94.91 97.63 100.27 102.55 104.21 105.08 105.04 104.10 102.34 99.96 97.17 94.28 91.54 89.19 87.40 86.26 85.74 85.75 86.09 86.53 86.79 86.64 85.86 84.34 82.02 78.99 75.38 71.43 67.42 63.62 60.31 57.69 55.89 54.95 54.80 55.29 56.18 57.24 58.18 58.78 58.87 58.35 57.24 55.65 53.74 51.78 50.03 48.76 48.19 48.47 49.66 51.72 54.53 57.86 61.47 65.05 68.34 71.13 73.26 74.70 75.47 75.73 75.67 75.55 75.63 76.14 77.27 79.10 81.64 84.78 88.36 92.11 95.77 99.05 101.71 103.56 104.53 104.61 103.91 102.63 101.00 99.29 97.77 96.66 96.11 96.18 96.83 97.93 99.28 100.62 101.69 102.24 102.07 101.08 99.24 96.63 93.43 89.85 86.20 82.74 79.74 77.40 75.82
65.17 63.84 62.90 62.56 62.95 64.15 66.15 68.81 71.97 75.38 78.78 81.92 84.56 86.58 87.90 88.55 88.63 88.32 87.86 87.48 87.41 87.82 88.81 90.41 92.54 95.05 97.73 100.32 102.57 104.24 105.18 105.27 104.51 103.00 100.89 98.40 95.79 93.31 91.18 89.55 88.49 88.00 87.98 88.25 88.58 88.75 88.52 87.70 86.18 83.93 81.00 77.53 73.74 69.88 66.22 63.00 60.41 58.58 57.53 57.21 57.48 58.13 58.93 59.63 60.02 59.94 59.32 58.17 56.57 54.70 52.80 51.10 49.85 49.26 49.47 50.53 52.42 55.00 58.08 61.42 64.76 67.84 70.48 72.53 73.95 74.77 75.12 75.20 75.23 75.46 76.09 77.28 79.14 81.65 84.72 88.19 91.82 95.36 98.56 101.17 103.05 104.09 104.32 103.83 102.78 101.40 99.94 98.65 97.72 97.29 97.41 98.06 99.10 100.36 101.59 102.56 103.04 102.85 101.88 100.11 97.62 94.57 91.17 87.68 84.36 81.46 79.15 77.53
64.63 63.61 62.92 62.75 63.20 64.33 66.13 68.50 71.30 74.31 77.34 80.17 82.62 84.57 85.97 86.83 87.24 87.34 87.32 87.36 87.64 88.30 89.42 91.03 93.05 95.36 97.79 100.13 102.16 103.72 104.64 104.85 104.36 103.21 101.56 99.57 97.45 95.41 93.62 92.20 91.22 90.67 90.47 90.48 90.53 90.41 89.94 88.99 87.44 85.29 82.57 79.42 75.99 72.50 69.17 66.19 63.73 61.88 60.68 60.07 59.95 60.16 60.50 60.78 60.84 60.53 59.81 58.69 57.23 55.58 53.93 52.48 51.43 50.94 51.12 52.03 53.63 55.83 58.46 61.33 64.23 66.95 69.33 71.26 72.70 73.67 74.29 74.69 75.07 75.62 76.50 77.84 79.72 82.13 85.00 88.18 91.48 94.70 97.63 100.07 101.90 103.03 103.49 103.33 102.70 101.78 100.77 99.87 99.22 98.96 99.11 99.65 100.48 101.46 102.39 103.08 103.33 103.02 102.05 100.42 98.17 95.45 92.43 89.31 86.32 83.66 81.46 79.81
64.17 63.60 63.31 63.41 63.96 65.02 66.55 68.51 70.78 73.23 75.72 78.10 80.26 82.11 83.60 84.75 85.61 86.27 86.84 87.44 88.19 89.18 90.45 92.02 93.83 95.80 97.82 99.73 101.41 102.72 103.57 103.91 103.72 103.06 102.01 100.68 99.22 97.76 96.41 95.25 94.34 93.66 93.17 92.78 92.36 91.81 90.99 89.81 88.22 86.20 83.80 81.09 78.19 75.24 72.39 69.78 67.52 65.68 64.28 63.30 62.66 62.26 61.99 61.71 61.32 60.74 59.93 58.89 57.69 56.41 55.18 54.14 53.41 53.11 53.31 54.05 55.29 56.98 59.00 61.24 63.53 65.76 67.79 69.57 71.06 72.27 73.27 74.15 75.04 76.05 77.29 78.84 80.75 83.00 85.55 88.29 91.10 93.83 96.34 98.50 100.23 101.46 102.20 102.50 102.44 102.14 101.73 101.35 101.08 101.01 101.17 101.52 102.03 102.57 103.03 103.28 103.20 102.70 101.72 100.26 98.36 96.11 93.63 91.06 88.55 86.24 84.22 82.56
63.78 63.78 63.98 64.41 65.10 66.06 67.28 68.74 70.38 72.15 73.99 75.84 77.64 79.35 80.95 82.44 83.82 85.13 86.40 87.66 88.96 90.32 91.74 93.24 94.77 96.31 97.80 99.19 100.40 101.40 102.13 102.58 102.75 102.64 102.28 101.73 101.03 100.24 99.40 98.54 97.69 96.84 95.98 95.09 94.11 93.02 91.76 90.32 88.67 86.82 84.78 82.61 80.34 78.05 75.80 73.65 71.64 69.82 68.20 66.78 65.53 64.43 63.44 62.51 61.61 60.72 59.82 58.92 58.04 57.23 56.54 56.01 55.70 55.65 55.89 56.43 57.26 58.36 59.67 61.15 62.74 64.38 66.01 67.62 69.17 70.67 72.14 73.60 75.10 76.66 78.34 80.13 82.07 84.12 86.28 88.48 90.68 92.80 94.80 96.61 98.19 99.52 100.59 101.42 102.02 102.45 102.76 102.97 103.14 103.29 103.44 103.56 103.65 103.65 103.54 103.25 102.76 102.02 101.02 99.77 98.28 96.60 94.78 92.87 90.95 89.07 87.28 85.60
63.47 64.07 64.79 65.58 66.41 67.28 68.17 69.09 70.06 71.11 72.25 73.52 74.93 76.49 78.20 80.04 81.98 83.97 85.97 87.92 89.79 91.53 93.11 94.52 95.75 96.82 97.74 98.54 99.25 99.90 100.50 101.07 101.59 102.06 102.44 102.70 102.81 102.73 102.42 101.87 101.08 100.05 98.80 97.37 95.80 94.13 92.41 90.68 88.97 87.29 85.66 84.06 82.48 80.90 79.29 77.63 75.90 74.11 72.26 70.38 68.50 66.66 64.91 63.30 61.87 60.65 59.66 58.92 58.40 58.10 57.98 58.01 58.15 58.37 58.67 59.01 59.41 59.88 60.44 61.12 61.95 62.96 64.17 65.59 67.22 69.03 70.99 73.07 75.21 77.36 79.48 81.54 83.49 85.33 87.06 88.68 90.22 91.70 93.14 94.56 95.99 97.41 98.82 100.20 101.51 102.71 103.75 104.61 105.23 105.62 105.74 105.61 105.25 104.68 103.95 103.10 102.16 101.17 100.15 99.12 98.08 97.00 95.88 94.69 93.40 91.98 90.44 88.76
63.24 64.41 65.62 66.74 67.71 68.48 69.04 69.45 69.78 70.12 70.59 71.30 72.33 73.74 75.55 77.71 80.17 82.81 85.51 88.12 90.54 92.64 94.36 95.69 96.62 97.23 97.61 97.86 98.09 98.41 98.89 99.57 100.44 101.46 102.55 103.60 104.48 105.08 105.29 105.05 104.32 103.12 101.51 99.57 97.43 95.23 93.07 91.08 89.32 87.82 86.58 85.54 84.63 83.72 82.73 81.54 80.09 78.34 76.28 73.96 71.47 68.93 66.46 64.20 62.26 60.73 59.67 59.06 58.89 59.07 59.49 60.05 60.62 61.10 61.44 61.59 61.56 61.42 61.26 61.17 61.27 61.68 62.47 63.71 65.39 67.49 69.91 72.57 75.31 78.02 80.57 82.86 84.83 86.45 87.77 88.83 89.73 90.58 91.49 92.54 93.82 95.33 97.06 98.97 100.94 102.88 104.64 106.10 107.17 107.77 107.88 107.51 106.73 105.62 104.31 102.91 101.56 100.34 99.31 98.50 97.88 97.40 96.95 96.45 95.76 94.80 93.50 91.83
63.08 64.73 66.34 67.74 68.80 69.48 69.75 69.71 69.47 69.20 69.09 69.32 70.02 71.30 73.18 75.62 78.51 81.70 84.99 88.16 91.04 93.45 95.30 96.56 97.25 97.49 97.41 97.20 97.04 97.09 97.48 98.26 99.45 100.96 102.67 104.40 105.96 107.16 107.84 107.88 107.22 105.90 103.99 101.65 99.05 96.40 93.90 91.70 89.91 88.58 87.68 87.13 86.79 86.48 86.02 85.24 84.03 82.31 80.07 77.38 74.38 71.24 68.15 65.33 62.95 61.15 60.01 59.52 59.62 60.19 61.07 62.06 62.97 63.66 64.01 63.98 63.58 62.90 62.10 61.33 60.80 60.67 61.09 62.15 63.87 66.19 69.00 72.12 75.38 78.54 81.44 83.92 85.89 87.32 88.28 88.86 89.22 89.53 89.98 90.73 91.87 93.46 95.47 97.83 100.38 102.95 105.33 107.32 108.78 109.58 109.69 109.13 108.00 106.44 104.64 102.81 101.11 99.70 98.68 98.06 97.82 97.85 98.00 98.08 97.92 97.36 96.27 94.60
63.01 64.97 66.85 68.42 69.53 70.11 70.16 69.77 69.11 68.38 67.84 67.70 68.15 69.32 71.24 73.88 77.08 80.67 84.38 87.96 91.18 93.82 95.78 97.00 97.54 97.52 97.13 96.61 96.19 96.08 96.43 97.33 98.77 100.67 102.86 105.12 107.20 108.87 109.91 110.19 109.62 108.25 106.16 103.56 100.66 97.73 95.00 92.68 90.90 89.71 89.09 88.91 88.99 89.12 89.06 88.59 87.55 85.85 83.49 80.53 77.16 73.57 70.03 66.79 64.08 62.07 60.84 60.41 60.69 61.52 62.69 63.96 65.10 65.90 66.23 66.02 65.32 64.23 62.93 61.64 60.61 60.07 60.19 61.10 62.81 65.26 68.32 71.76 75.35 78.83 81.96 84.56 86.51 87.81 88.49 88.72 88.68 88.61 88.74 89.25 90.31 91.96 94.19 96.89 99.87 102.91 105.75 108.15 109.90 110.87 111.00 110.32 108.97 107.11 104.99 102.86 100.94 99.42 98.42 97.97 98.02 98.44 99.02 99.55 99.78 99.51 98.58 96.93
63.01 65.09 67.06 68.68 69.78 70.28 70.17 69.57 68.66 67.68 66.88 66.54 66.84 67.94 69.87 72.59 75.95 79.73 83.67 87.47 90.86 93.64 95.67 96.90 97.39 97.27 96.77 96.14 95.63 95.48 95.86 96.87 98.50 100.65 103.14 105.73 108.15 110.12 111.41 111.87 111.41 110.07 107.95 105.27 102.28 99.26 96.47 94.13 92.40 91.32 90.87 90.91 91.24 91.62 91.77 91.47 90.53 88.85 86.42 83.32 79.74 75.92 72.13 68.65 65.75 63.59 62.29 61.84 62.17 63.08 64.35 65.71 66.90 67.70 67.96 67.62 66.70 65.34 63.72 62.12 60.78 59.97 59.89 60.66 62.32 64.79 67.93 71.49 75.22 78.82 82.03 84.67 86.60 87.80 88.34 88.37 88.13 87.86 87.83 88.24 89.26 90.97 93.32 96.21 99.44 102.75 105.85 108.49 110.43 111.52 111.70 111.01 109.58 107.61 105.37 103.13 101.13 99.60 98.65 98.32 98.55 99.19 100.03 100.80 101.25 101.15 100.32 98.67
63.09 65.08 66.95 68.48 69.50 69.91 69.74 69.08 68.12 67.09 66.26 65.87 66.15 67.21 69.12 71.81 75.15 78.92 82.84 86.64 90.05 92.86 94.93 96.21 96.77 96.74 96.33 95.79 95.39 95.35 95.84 96.96 98.70 100.96 103.56 106.25 108.78 110.86 112.27 112.85 112.52 111.31 109.33 106.78 103.92 101.01 98.34 96.10 94.46 93.47 93.08 93.17 93.54 93.95 94.13 93.84 92.91 91.24 88.81 85.71 82.12 78.28 74.46 70.95 67.99 65.77 64.40 63.86 64.09 64.89 66.04 67.28 68.35 69.03 69.17 68.70 67.67 66.20 64.48 62.77 61.33 60.42 60.24 60.90 62.46 64.82 67.86 71.33 74.96 78.48 81.62 84.20 86.08 87.25 87.77 87.80 87.57 87.31 87.30 87.74 88.79 90.53 92.92 95.84 99.11 102.46 105.62 108.31 110.31 111.48 111.74 111.14 109.80 107.94 105.79 103.65 101.75 100.30 99.42 99.16 99.45 100.14 101.01 101.82 102.30 102.22 101.41 99.79
63.25 64.93 66.51 67.82 68.68 69.03 68.87 68.30 67.48 66.62 65.96 65.71 66.07 67.14 68.98 71.53 74.68 78.21 81.90 85.50 88.75 91.48 93.56 94.95 95.69 95.92 95.81 95.58 95.47 95.68 96.36 97.59 99.36 101.58 104.09 106.68 109.10 111.11 112.51 113.15 112.96 111.97 110.28 108.07 105.56 102.99 100.61 98.59 97.08 96.13 95.70 95.68 95.89 96.11 96.12 95.70 94.69 93.01 90.65 87.69 84.28 80.65 77.03 73.68 70.81 68.61 67.16 66.46 66.44 66.94 67.76 68.67 69.43 69.86 69.83 69.28 68.24 66.82 65.20 63.60 62.27 61.42 61.23 61.83 63.22 65.36 68.11 71.26 74.58 77.81 80.73 83.15 84.97 86.17 86.81 87.02 87.00 86.97 87.16 87.75 88.89 90.64 92.97 95.78 98.88 102.05 105.04 107.61 109.56 110.75 111.12 110.72 109.64 108.08 106.26 104.41 102.77 101.51 100.74 100.49 100.71 101.28 101.98 102.61 102.93 102.73 101.86 100.26
63.49 64.66 65.80 66.75 67.40 67.69 67.62 67.28 66.78 66.28 65.97 66.01 66.54 67.66 69.40 71.72 74.51 77.63 80.88 84.07 87.02 89.57 91.63 93.17 94.20 94.84 95.21 95.49 95.84 96.43 97.36 98.69 100.42 102.48 104.73 107.01 109.13 110.90 112.17 112.82 112.80 112.12 110.86 109.17 107.20 105.16 103.22 101.53 100.20 99.26 98.69 98.41 98.27 98.12 97.78 97.09 95.93 94.24 92.01 89.30 86.25 83.01 79.79 76.78 74.15 72.03 70.51 69.58 69.18 69.21 69.51 69.90 70.20 70.28 70.03 69.41 68.45 67.23 65.89 64.60 63.55 62.91 62.82 63.36 64.56 66.36 68.66 71.31 74.11 76.87 79.41 81.60 83.34 84.63 85.49 86.04 86.42 86.80 87.35 88.22 89.51 91.25 93.44 95.98 98.74 101.53 104.16 106.45 108.23 109.40 109.92 109.80 109.14 108.06 106.76 105.39 104.15 103.16 102.52 102.25 102.30 102.57 102.92 103.18 103.16 102.72 101.74 100.16
63.81 64.32 64.88 65.39 65.78 66.01 66.10 66.08 66.03 66.04 66.22 66.67 67.46 68.65 70.26 72.26 74.58 77.13 79.79 82.44 84.97 87.27 89.29 90.99 92.40 93.56 94.56 95.48 96.43 97.49 98.72 100.16 101.79 103.58 105.43 107.25 108.92 110.33 111.38 111.99 112.14 111.84 111.13 110.09 108.82 107.45 106.08 104.79 103.66 102.72 101.94 101.28 100.66 100.00 99.18 98.12 96.75 95.04 92.98 90.63 88.06 85.38 82.71 80.18 77.88 75.91 74.31 73.10 72.24 71.67 71.30 71.02 70.75 70.39 69.88 69.22 68.40 67.49 66.57 65.74 65.12 64.80 64.88 65.39 66.34 67.72 69.45 71.44 73.57 75.72 77.78 79.67 81.33 82.73 83.91 84.92 85.85 86.78 87.82 89.04 90.51 92.24 94.22 96.38 98.65 100.91 103.03 104.91 106.44 107.56 108.24 108.48 108.34 107.90 107.25 106.52 105.79 105.15 104.65 104.31 104.10 103.97 103.82 103.56 103.09 102.31 101.16 99.60
64.20 63.98 63.88 63.89 63.99 64.17 64.45 64.82 65.29 65.90 66.65 67.57 68.67 69.95 71.41 73.04 74.82 76.71 78.68 80.70 82.72 84.73 86.68 88.58 90.41 92.17 93.86 95.51 97.12 98.71 100.27 101.81 103.32 104.77 106.15 107.42 108.55 109.51 110.28 110.84 111.17 111.28 111.17 110.87 110.40 109.78 109.05 108.22 107.32 106.35 105.31 104.22 103.04 101.77 100.40 98.91 97.30 95.57 93.72 91.79 89.79 87.76 85.73 83.76 81.86 80.07 78.40 76.88 75.50 74.25 73.12 72.11 71.18 70.34 69.56 68.86 68.23 67.70 67.29 67.01 66.89 66.97 67.24 67.73 68.43 69.33 70.42 71.66 73.02 74.48 75.99 77.53 79.09 80.64 82.19 83.73 85.28 86.84 88.44 90.07 91.74 93.44 95.17 96.89 98.58 100.21 101.74 103.13 104.36 105.41 106.25 106.90 107.35 107.62 107.72 107.69 107.54 107.29 106.95 106.52 106.01 105.40 104.67 103.81 102.80 101.63 100.28 98.76
64.67 63.69 62.92 62.41 62.22 62.36 62.82 63.59 64.62 65.83 67.18 68.58 69.99 71.36 72.67 73.92 75.12 76.33 77.59 78.95 80.45 82.14 84.03 86.11 88.36 90.73 93.14 95.53 97.82 99.94 101.83 103.47 104.83 105.94 106.81 107.51 108.08 108.58 109.06 109.55 110.06 110.59 111.11 111.57 111.91 112.07 111.99 111.63 110.96 109.97 108.67 107.12 105.37 103.49 101.55 99.63 97.77 96.02 94.40 92.89 91.48 90.13 88.78 87.39 85.91 84.31 82.58 80.75 78.83 76.90 75.01 73.23 71.64 70.30 69.25 68.52 68.10 67.96 68.07 68.36 68.77 69.25 69.74 70.21 70.64 71.05 71.47 71.94 72.51 73.25 74.19 75.38 76.83 78.53 80.44 82.53 84.72 86.93 89.09 91.13 93.01 94.68 96.14 97.40 98.49 99.46 100.37 101.25 102.17 103.13 104.14 105.20 106.25 107.25 108.13 108.82 109.26 109.41 109.23 108.71 107.88 106.78 105.45 103.98 102.42 100.84 99.29 97.81
65.21 63.53 62.13 61.15 60.68 60.76 61.40 62.53 64.05 65.83 67.71 69.56 71.24 72.68 73.84 74.73 75.40 75.97 76.56 77.30 78.32 79.71 81.53 83.78 86.42 89.34 92.41 95.48 98.39 101.01 103.21 104.93 106.17 106.95 107.37 107.54 107.59 107.67 107.89 108.32 109.01 109.94 111.04 112.21 113.31 114.21 114.75 114.83 114.38 113.38 111.86 109.90 107.63 105.19 102.74 100.42 98.34 96.59 95.18 94.08 93.23 92.51 91.79 90.94 89.85 88.43 86.66 84.53 82.13 79.55 76.95 74.47 72.26 70.47 69.16 68.39 68.15 68.37 68.95 69.76 70.66 71.50 72.17 72.61 72.79 72.74 72.53 72.27 72.10 72.16 72.57 73.41 74.75 76.57 78.82 81.40 84.17 86.97 89.65 92.06 94.12 95.75 96.96 97.78 98.32 98.68 99.01 99.43 100.05 100.93 102.10 103.54 105.15 106.83 108.42 109.79 110.79 111.31 111.28 110.69 109.58 108.02 106.15 104.11 102.05 100.11 98.39 96.94
65.83 63.55 61.63 60.25 59.54 59.57 60.33 61.74 63.65 65.86 68.17 70.36 72.26 73.74 74.76 75.34 75.56 75.60 75.63 75.86 76.47 77.61 79.37 81.76 84.70 88.07 91.68 95.31 98.74 101.76 104.22 106.03 107.17 107.70 107.76 107.51 107.17 106.92 106.94 107.35 108.20 109.48 111.08 112.85 114.60 116.11 117.18 117.64 117.40 116.42 114.73 112.46 109.79 106.91 104.06 101.43 99.20 97.45 96.23 95.48 95.09 94.89 94.69 94.29 93.52 92.25 90.43 88.07 85.26 82.16 78.96 75.90 73.18 70.99 69.46 68.65 68.54 69.03 69.98 71.19 72.45 73.56 74.37 74.76 74.71 74.25 73.50 72.63 71.84 71.32 71.26 71.81 73.04 74.94 77.45 80.41 83.64 86.90 89.99 92.70 94.89 96.49 97.48 97.95 98.03 97.90 97.75 97.79 98.17 99.00 100.31 102.06 104.14 106.38 108.58 110.51 111.97 112.81 112.92 112.29 110.96 109.06 106.76 104.28 101.83 99.60 97.75 96.35
66.51 63.82 61.53 59.85 58.95 58.92 59.74 61.31 63.45 65.93 68.49 70.88 72.89 74.38 75.28 75.63 75.54 75.20 74.84 74.71 75.04 76.00 77.71 80.18 83.33 87.00 90.98 94.99 98.77 102.08 104.72 106.60 107.70 108.10 107.94 107.44 106.86 106.42 106.35 106.78 107.78 109.33 111.30 113.52 115.73 117.70 119.16 119.93 119.86 118.93 117.17 114.73 111.82 108.69 105.60 102.79 100.48 98.76 97.68 97.18 97.12 97.28 97.43 97.34 96.78 95.61 93.75 91.23 88.13 84.66 81.06 77.58 74.49 72.02 70.31 69.43 69.37 70.01 71.17 72.61 74.08 75.33 76.18 76.50 76.25 75.48 74.34 73.01 71.76 70.82 70.42 70.73 71.85 73.78 76.42 79.62 83.12 86.68 90.02 92.91 95.18 96.74 97.59 97.81 97.59 97.12 96.67 96.46 96.70 97.50 98.91 100.90 103.31 105.94 108.56 110.89 112.69 113.77 114.01 113.37 111.92 109.82 107.26 104.51 101.82 99.43 97.52 96.18
67.25 64.37 61.88 60.04 59.03 58.92 59.71 61.29 63.48 66.01 68.63 71.05 73.06 74.51 75.32 75.53 75.27 74.75 74.20 73.91 74.10 74.98 76.65 79.15 82.38 86.18 90.31 94.49 98.43 101.87 104.62 106.57 107.69 108.07 107.87 107.33 106.71 106.26 106.21 106.72 107.84 109.57 111.76 114.23 116.71 118.93 120.63 121.58 121.66 120.81 119.10 116.65 113.71 110.53 107.40 104.58 102.27 100.61 99.63 99.25 99.34 99.67 99.98 100.01 99.54 98.41 96.52 93.91 90.68 87.04 83.23 79.55 76.27 73.63 71.79 70.84 70.74 71.37 72.55 74.01 75.49 76.73 77.52 77.74 77.33 76.37 74.99 73.41 71.90 70.72 70.12 70.27 71.29 73.17 75.82 79.06 82.64 86.27 89.68 92.62 94.90 96.42 97.20 97.32 96.97 96.38 95.81 95.52 95.71 96.52 98.01 100.11 102.69 105.53 108.36 110.89 112.87 114.09 114.43 113.84 112.40 110.26 107.65 104.84 102.10 99.69 97.80 96.52
68.07 65.20 62.72 60.86 59.79 59.60 60.28 61.72 63.75 66.12 68.57 70.84 72.73 74.08 74.83 75.01 74.76 74.25 73.74 73.48 73.69 74.58 76.24 78.70 81.88 85.62 89.68 93.79 97.69 101.11 103.88 105.88 107.10 107.60 107.56 107.19 106.74 106.46 106.56 107.20 108.44 110.24 112.49 115.00 117.52 119.79 121.54 122.57 122.75 122.04 120.48 118.21 115.45 112.45 109.49 106.81 104.62 103.03 102.09 101.72 101.77 102.05 102.30 102.28 101.76 100.59 98.69 96.08 92.87 89.26 85.48 81.82 78.54 75.86 73.96 72.90 72.66 73.13 74.12 75.38 76.66 77.72 78.35 78.42 77.91 76.87 75.43 73.81 72.27 71.05 70.40 70.48 71.40 73.16 75.67 78.75 82.18 85.66 88.94 91.78 93.99 95.49 96.28 96.45 96.17 95.66 95.19 94.99 95.25 96.12 97.64 99.75 102.33 105.15 107.96 110.48 112.48 113.74 114.15 113.66 112.35 110.37 107.92 105.27 102.69 100.41 98.62 97.41
68.94 66.31 64.02 62.28 61.23 60.94 61.42 62.57 64.25 66.24 68.32 70.27 71.91 73.12 73.84 74.10 74.00 73.72 73.45 73.41 73.80 74.79 76.46 78.83 81.82 85.31 89.09 92.92 96.57 99.83 102.53 104.58 105.95 106.71 107.00 107.01 106.94 107.00 107.39 108.21 109.53 111.32 113.48 115.83 118.17 120.27 121.92 122.92 123.17 122.62 121.33 119.41 117.04 114.44 111.85 109.47 107.49 106.00 105.04 104.55 104.41 104.43 104.42 104.15 103.45 102.18 100.28 97.76 94.72 91.33 87.80 84.37 81.27 78.69 76.78 75.60 75.12 75.27 75.87 76.72 77.60 78.31 78.67 78.59 78.01 77.00 75.68 74.23 72.86 71.80 71.24 71.33 72.16 73.73 75.96 78.70 81.75 84.87 87.83 90.43 92.51 93.98 94.86 95.22 95.20 94.99 94.81 94.86 95.31 96.27 97.78 99.80 102.20 104.79 107.37 109.69 111.54 112.74 113.19 112.86 111.81 110.15 108.07 105.81 103.57 101.57 99.96 98.82
69.87 67.66 65.72 64.21 63.24 62.86 63.07 63.81 64.96 66.38 67.92 69.40 70.70 71.72 72.44 72.85 73.06 73.16 73.31 73.66 74.37 75.53 77.22 79.45 82.15 85.23 88.54 91.90 95.14 98.10 100.66 102.74 104.32 105.46 106.24 106.80 107.28 107.84 108.60 109.66 111.05 112.74 114.67 116.70 118.68 120.44 121.82 122.70 122.98 122.65 121.72 120.29 118.48 116.47 114.42 112.49 110.80 109.43 108.40 107.69 107.19 106.79 106.34 105.68 104.68 103.26 101.36 99.01 96.27 93.28 90.19 87.17 84.41 82.03 80.16 78.83 78.05 77.74 77.78 78.04 78.36 78.58 78.59 78.31 77.71 76.84 75.79 74.67 73.66 72.91 72.57 72.74 73.48 74.80 76.63 78.87 81.36 83.93 86.41 88.64 90.52 91.98 93.02 93.68 94.08 94.34 94.63 95.07 95.80 96.89 98.37 100.19 102.26 104.46 106.61 108.55 110.11 111.17 111.65 111.52 110.82 109.64 108.12 106.41 104.68 103.08 101.73 100.67
70.85 69.20 67.73 66.55 65.69 65.21 65.10 65.33 65.85 66.57 67.43 68.33 69.22 70.03 70.75 71.39 71.99 72.60 73.30 74.17 75.28 76.68 78.40 80.44 82.77 85.32 88.02 90.78 93.48 96.05 98.40 100.51 102.35 103.94 105.32 106.55 107.71 108.87 110.09 111.42 112.85 114.39 115.98 117.56 119.05 120.34 121.37 122.05 122.34 122.24 121.74 120.91 119.81 118.52 117.13 115.74 114.40 113.16 112.05 111.03 110.08 109.13 108.11 106.95 105.58 103.96 102.08 99.95 97.61 95.14 92.62 90.16 87.84 85.75 83.96 82.48 81.32 80.46 79.83 79.37 79.00 78.64 78.23 77.74 77.15 76.49 75.80 75.15 74.63 74.31 74.28 74.57 75.23 76.25 77.60 79.21 81.01 82.89 84.77 86.56 88.19 89.63 90.87 91.93 92.86 93.72 94.59 95.54 96.61 97.85 99.25 100.81 102.46 104.13 105.72 107.15 108.32 109.17 109.66 109.76 109.49 108.90 108.06 107.05 105.95 104.84 103.79 102.82
71.89 70.86 69.93 69.11 68.41 67.82 67.36 67.04 66.86 66.82 66.94 67.20 67.63 68.22 68.96 69.85 70.89 72.08 73.39 74.83 76.39 78.05 79.80 81.64 83.55 85.52 87.54 89.61 91.70 93.82 95.95 98.08 100.18 102.26 104.30 106.27 108.17 109.99 111.70 113.30 114.78 116.13 117.33 118.40 119.31 120.07 120.68 121.13 121.43 121.56 121.54 121.36 121.02 120.53 119.88 119.07 118.12 117.03 115.81 114.46 113.00 111.43 109.78 108.06 106.28 104.45 102.59 100.71 98.83 96.95 95.08 93.24 91.44 89.68 87.99 86.35 84.80 83.34 81.98 80.73 79.61 78.61 77.75 77.04 76.48 76.06 75.80 75.69 75.72 75.90 76.21 76.66 77.24 77.94 78.75 79.67 80.70 81.82 83.03 84.32 85.68 87.10 88.57 90.07 91.59 93.11 94.63 96.12 97.56 98.96 100.29 101.54 102.70 103.77 104.73 105.58 106.31 106.92 107.40 107.74 107.94 108.00 107.91 107.66 107.25 106.69 105.96 105.08
72.97 72.58 72.19 71.74 71.18 70.50 69.70 68.82 67.94 67.15 66.52 66.16 66.13 66.48 67.24 68.39 69.87 71.62 73.55 75.56 77.55 79.47 81.25 82.87 84.36 85.74 87.08 88.45 89.94 91.61 93.50 95.63 98.00 100.56 103.24 105.95 108.59 111.05 113.25 115.12 116.64 117.79 118.61 119.15 119.50 119.72 119.91 120.13 120.43 120.81 121.26 121.73 122.16 122.46 122.54 122.33 121.77 120.83 119.50 117.82 115.86 113.69 111.42 109.15 106.96 104.93 103.10 101.48 100.05 98.77 97.56 96.35 95.06 93.64 92.05 90.27 88.33 86.27 84.18 82.15 80.28 78.65 77.35 76.42 75.88 75.71 75.88 76.29 76.88 77.55 78.22 78.81 79.30 79.68 79.95 80.19 80.44 80.80 81.34 82.13 83.21 84.60 86.29 88.22 90.32 92.50 94.65 96.67 98.49 100.03 101.27 102.22 102.89 103.35 103.68 103.95 104.23 104.60 105.07 105.65 106.33 107.03 107.68 108.19 108.47 108.45 108.06 107.27
74.10 74.27 74.36 74.24 73.81 73.04 71.93 70.56 69.05 67.56 66.27 65.33 64.89 65.03 65.79 67.15 69.02 71.26 73.73 76.23 78.61 80.75 82.54 83.97 85.06 85.91 86.63 87.38 88.31 89.57 91.24 93.38 95.98 98.97 102.23 105.59 108.88 111.92 114.56 116.68 118.23 119.22 119.70 119.79 119.63 119.39 119.22 119.24 119.55 120.16 121.04 122.11 123.23 124.26 125.01 125.35 125.15 124.35 122.95 120.99 118.59 115.89 113.08 110.32 107.78 105.58 103.79 102.41 101.39 100.64 100.02 99.38 98.56 97.44 95.94 94.02 91.73 89.14 86.40 83.67 81.12 78.92 77.21 76.08 75.55 75.59 76.12 76.99 78.06 79.16 80.12 80.84 81.23 81.30 81.08 80.68 80.23 79.89 79.82 80.15 80.97 82.32 84.19 86.50 89.11 91.86 94.57 97.07 99.20 100.88 102.04 102.70 102.93 102.86 102.61 102.37 102.26 102.40 102.87 103.68 104.78 106.06 107.38 108.58 109.49 109.96 109.88 109.17
75.26 75.87 76.33 76.46 76.13 75.27 73.91 72.14 70.13 68.10 66.27 64.87 64.08 64.04 64.78 66.29 68.43 71.04 73.90 76.77 79.43 81.72 83.50 84.76 85.54 85.95 86.18 86.44 86.93 87.86 89.36 91.51 94.28 97.61 101.31 105.19 108.99 112.49 115.48 117.81 119.40 120.27 120.51 120.27 119.74 119.16 118.73 118.63 118.96 119.78 121.02 122.58 124.28 125.89 127.19 127.97 128.08 127.42 125.98 123.83 121.11 118.02 114.81 111.70 108.90 106.58 104.82 103.64 102.95 102.63 102.47 102.26 101.80 100.91 99.48 97.45 94.87 91.86 88.59 85.29 82.20 79.54 77.50 76.18 75.63 75.81 76.60 77.80 79.22 80.61 81.78 82.56 82.85 82.65 82.03 81.11 80.08 79.17 78.60 78.54 79.14 80.44 82.44 85.01 88.00 91.18 94.32 97.17 99.55 101.32 102.41 102.86 102.75 102.25 101.57 100.93 100.52 100.51 100.99 101.98 103.42 105.17 107.03 108.79 110.20 111.07 111.24 110.63
76.47 77.33 78.01 78.28 77.98 77.06 75.52 73.49 71.15 68.75 66.57 64.85 63.83 63.64 64.34 65.90 68.18 70.98 74.04 77.10 79.90 82.25 84.00 85.13 85.69 85.82 85.73 85.67 85.89 86.61 88.00 90.14 93.03 96.56 100.54 104.74 108.87 112.67 115.89 118.36 120.01 120.85 120.97 120.55 119.84 119.09 118.55 118.41 118.81 119.80 121.31 123.21 125.30 127.31 128.99 130.10 130.44 129.90 128.48 126.25 123.37 120.08 116.65 113.35 110.43 108.05 106.34 105.29 104.81 104.75 104.87 104.93 104.69 103.93 102.52 100.41 97.64 94.34 90.73 87.06 83.60 80.63 78.33 76.86 76.26 76.48 77.37 78.74 80.31 81.84 83.08 83.84 84.03 83.62 82.69 81.41 79.99 78.69 77.77 77.44 77.86 79.10 81.14 83.85 87.04 90.46 93.84 96.89 99.41 101.22 102.27 102.58 102.27 101.53 100.59 99.72 99.14 99.05 99.56 100.69 102.36 104.42 106.64 108.76 110.51 111.66 112.02 111.49
77.70 78.61 79.33 79.61 79.29 78.31 76.69 74.55 72.08 69.54 67.20 65.35 64.21 63.92 64.55 66.05 68.30 71.08 74.14 77.18 79.96 82.26 83.96 85.01 85.47 85.49 85.29 85.11 85.24 85.89 87.24 89.38 92.29 95.88 99.95 104.25 108.49 112.40 115.72 118.28 119.99 120.87 121.03 120.64 119.95 119.24 118.74 118.68 119.18 120.29 121.96 124.04 126.31 128.52 130.38 131.65 132.12 131.70 130.36 128.18 125.33 122.06 118.63 115.34 112.43 110.08 108.41 107.42 107.01 107.03 107.23 107.35 107.15 106.41 104.98 102.82 99.96 96.54 92.79 88.97 85.36 82.23 79.80 78.22 77.52 77.66 78.49 79.80 81.32 82.79 83.95 84.61 84.68 84.12 83.02 81.56 79.96 78.48 77.39 76.92 77.22 78.38 80.37 83.06 86.26 89.70 93.10 96.17 98.70 100.51 101.54 101.82 101.46 100.66 99.68 98.77 98.19 98.11 98.67 99.87 101.65 103.84 106.21 108.48 110.37 111.65 112.12 111.68
78.95 79.71 80.27 80.43 80.03 79.02 77.41 75.31 72.91 70.45 68.19 66.38 65.24 64.90 65.42 66.76 68.81 71.36 74.18 77.00 79.59 81.75 83.35 84.37 84.86 84.94 84.84 84.77 85.00 85.72 87.11 89.23 92.10 95.59 99.55 103.72 107.85 111.67 114.95 117.53 119.32 120.34 120.68 120.52 120.08 119.60 119.33 119.45 120.09 121.29 123.00 125.07 127.32 129.49 131.33 132.60 133.13 132.80 131.61 129.62 126.99 123.95 120.76 117.67 114.92 112.68 111.05 110.04 109.57 109.47 109.53 109.51 109.17 108.32 106.83 104.64 101.81 98.45 94.77 91.02 87.47 84.37 81.92 80.25 79.41 79.36 79.95 80.99 82.24 83.44 84.37 84.85 84.78 84.14 83.02 81.56 79.99 78.54 77.48 76.99 77.25 78.31 80.15 82.66 85.65 88.89 92.09 95.00 97.41 99.17 100.21 100.55 100.31 99.67 98.86 98.12 97.68 97.72 98.34 99.56 101.32 103.45 105.74 107.94 109.78 111.04 111.54 111.18
80.23 80.63 80.87 80.78 80.25 79.21 77.69 75.79 73.65 71.49 69.50 67.91 66.88 66.53 66.91 68.00 69.68 71.81 74.18 76.59 78.83 80.74 82.23 83.27 83.89 84.21 84.40 84.64 85.14 86.07 87.56 89.68 92.41 95.68 99.33 103.16 106.97 110.52 113.63 116.16 118.04 119.28 119.96 120.21 120.21 120.17 120.28 120.69 121.50 122.74 124.38 126.29 128.31 130.24 131.87 133.00 133.49 133.24 132.25 130.58 128.35 125.75 123.00 120.30 117.85 115.80 114.22 113.12 112.44 112.05 111.77 111.41 110.78 109.71 108.11 105.93 103.22 100.08 96.67 93.21 89.92 87.01 84.64 82.92 81.90 81.54 81.73 82.31 83.07 83.83 84.38 84.59 84.38 83.72 82.70 81.42 80.08 78.88 78.00 77.63 77.90 78.84 80.45 82.63 85.23 88.04 90.84 93.42 95.59 97.25 98.31 98.82 98.85 98.55 98.11 97.73 97.58 97.82 98.53 99.72 101.33 103.23 105.24 107.15 108.76 109.85 110.31 110.03
81.53 81.41 81.19 80.75 80.03 78.98 77.63 76.05 74.34 72.63 71.09 69.85 69.03 68.71 68.93 69.67 70.87 72.41 74.17 76.00 77.76 79.35 80.70 81.79 82.64 83.33 83.97 84.69 85.61 86.86 88.51 90.61 93.15 96.06 99.25 102.58 105.88 109.02 111.85 114.28 116.26 117.79 118.92 119.73 120.34 120.90 121.51 122.29 123.30 124.56 126.03 127.65 129.28 130.80 132.06 132.92 133.30 133.12 132.39 131.14 129.45 127.47 125.32 123.17 121.14 119.33 117.80 116.56 115.57 114.74 113.96 113.10 112.04 110.67 108.92 106.78 104.27 101.48 98.51 95.52 92.65 90.06 87.86 86.12 84.89 84.13 83.78 83.74 83.86 84.01 84.07 83.94 83.57 82.96 82.13 81.19 80.25 79.44 78.90 78.75 79.07 79.89 81.19 82.92 84.95 87.16 89.39 91.49 93.34 94.84 95.96 96.71 97.13 97.33 97.43 97.55 97.83 98.34 99.14 100.25 101.61 103.14 104.70 106.16 107.37 108.19 108.53 108.33
82.84 82.09 81.31 80.47 79.53 78.48 77.36 76.17 74.99 73.87 72.88 72.09 71.54 71.28 71.33 71.67 72.29 73.14 74.17 75.31 76.51 77.72 78.92 80.08 81.23 82.38 83.58 84.87 86.32 87.95 89.80 91.88 94.18 96.67 99.29 101.98 104.67 107.28 109.76 112.06 114.14 116.00 117.65 119.12 120.46 121.71 122.92 124.12 125.35 126.60 127.85 129.07 130.20 131.19 131.98 132.50 132.71 132.60 132.15 131.39 130.35 129.10 127.68 126.18 124.64 123.12 121.65 120.23 118.85 117.49 116.10 114.63 113.05 111.32 109.41 107.32 105.08 102.72 100.31 97.90 95.58 93.40 91.42 89.70 88.23 87.02 86.04 85.26 84.62 84.07 83.56 83.05 82.53 81.98 81.43 80.91 80.48 80.18 80.08 80.21 80.61 81.29 82.24 83.43 84.80 86.29 87.83 89.35 90.80 92.13 93.31 94.34 95.24 96.04 96.78 97.52 98.28 99.11 100.03 101.02 102.06 103.11 104.11 105.00 105.71 106.18 106.36 106.24
84.16 82.74 81.37 80.09 78.92 77.89 77.01 76.27 75.67 75.18 74.80 74.49 74.25 74.06 73.92 73.85 73.86 73.97 74.21 74.62 75.22 76.03 77.06 78.32 79.78 81.42 83.23 85.15 87.15 89.19 91.26 93.31 95.35 97.37 99.37 101.37 103.39 105.44 107.53 109.67 111.85 114.05 116.26 118.43 120.53 122.52 124.36 126.01 127.46 128.68 129.68 130.47 131.05 131.47 131.73 131.87 131.91 131.85 131.71 131.47 131.12 130.64 130.01 129.20 128.19 126.98 125.57 123.95 122.16 120.23 118.19 116.08 113.95 111.83 109.75 107.73 105.79 103.91 102.10 100.33 98.60 96.88 95.16 93.45 91.74 90.06 88.42 86.86 85.42 84.12 83.01 82.10 81.42 80.96 80.71 80.66 80.78 81.04 81.40 81.85 82.35 82.88 83.45 84.06 84.71 85.43 86.23 87.14 88.15 89.29 90.53 91.87 93.27 94.71 96.14 97.52 98.81 99.98 101.00 101.86 102.55 103.08 103.47 103.74 103.90 103.98 103.99 103.94
85.48 83.42 81.49 79.79 78.41 77.40 76.76 76.45 76.41 76.54 76.74 76.91 76.96 76.84 76.53 76.05 75.46 74.86 74.35 74.05 74.06 74.48 75.35 76.68 78.44 80.56 82.94 85.45 87.99 90.42 92.68 94.71 96.48 98.04 99.44 100.77 102.14 103.63 105.34 107.32 109.59 112.12 114.86 117.71 120.54 123.24 125.68 127.76 129.42 130.62 131.38 131.75 131.81 131.67 131.44 131.21 131.08 131.08 131.24 131.51 131.83 132.10 132.23 132.10 131.62 130.71 129.36 127.57 125.39 122.91 120.25 117.53 114.87 112.38 110.15 108.20 106.55 105.14 103.92 102.77 101.61 100.34 98.88 97.18 95.24 93.10 90.82 88.52 86.29 84.28 82.58 81.29 80.45 80.06 80.10 80.50 81.15 81.94 82.75 83.49 84.08 84.47 84.66 84.70 84.65 84.62 84.70 84.99 85.59 86.52 87.82 89.45 91.34 93.38 95.47 97.47 99.26 100.75 101.87 102.59 102.94 102.97 102.77 102.43 102.06 101.77 101.61 101.62
86.79 84.20 81.79 79.75 78.19 77.19 76.75 76.82 77.26 77.92 78.63 79.20 79.50 79.43 78.96 78.12 77.01 75.78 74.60 73.68 73.18 73.25 73.96 75.35 77.35 79.87 82.72 85.74 88.72 91.48 93.89 95.88 97.42 98.57 99.45 100.19 100.99 102.00 103.38 105.22 107.56 110.38 113.57 117.00 120.47 123.78 126.75 129.21 131.05 132.25 132.81 132.83 132.45 131.84 131.20 130.67 130.41 130.48 130.91 131.63 132.55 133.49 134.29 134.76 134.74 134.12 132.83 130.90 128.40 125.47 122.28 119.04 115.94 113.15 110.79 108.91 107.51 106.51 105.79 105.19 104.52 103.63 102.38 100.69 98.55 96.00 93.17 90.20 87.30 84.65 82.44 80.80 79.80 79.47 79.74 80.50 81.59 82.82 84.00 84.97 85.61 85.85 85.71 85.24 84.58 83.88 83.32 83.07 83.28 84.04 85.37 87.23 89.53 92.09 94.73 97.26 99.48 101.23 102.43 103.05 103.10 102.70 101.98 101.13 100.32 99.70 99.41 99.50
88.10 85.13 82.38 80.09 78.40 77.42 77.14 77.47 78.27 79.31 80.37 81.23 81.69 81.65 81.04 79.92 78.41 76.70 75.02 73.62 72.72 72.50 73.08 74.48 76.64 79.41 82.60 85.96 89.24 92.22 94.73 96.67 98.02 98.86 99.33 99.64 100.01 100.66 101.79 103.53 105.93 108.95 112.49 116.35 120.29 124.07 127.43 130.19 132.19 133.40 133.84 133.63 132.95 132.03 131.11 130.39 130.06 130.22 130.87 131.96 133.34 134.81 136.13 137.07 137.41 137.02 135.81 133.80 131.09 127.85 124.30 120.69 117.28 114.28 111.83 110.01 108.80 108.11 107.76 107.54 107.23 106.61 105.50 103.81 101.50 98.64 95.37 91.91 88.48 85.34 82.72 80.79 79.65 79.32 79.73 80.72 82.10 83.61 85.03 86.14 86.78 86.89 86.46 85.59 84.44 83.22 82.16 81.50 81.41 82.01 83.34 85.36 87.93 90.86 93.90 96.81 99.33 101.28 102.54 103.07 102.91 102.20 101.12 99.90 98.77 97.94 97.56 97.72
89.41 86.25 83.34 80.92 79.18 78.21 78.01 78.48 79.45 80.69 81.92 82.91 83.44 83.38 82.67 81.37 79.61 77.61 75.61 73.91 72.76 72.35 72.81 74.18 76.38 79.25 82.57 86.07 89.48 92.54 95.07 96.95 98.18 98.83 99.07 99.13 99.25 99.70 100.70 102.38 104.81 107.95 111.68 115.78 120.00 124.05 127.65 130.59 132.72 133.97 134.38 134.09 133.30 132.26 131.24 130.47 130.16 130.41 131.24 132.57 134.25 136.05 137.70 138.94 139.53 139.31 138.18 136.17 133.38 130.01 126.29 122.52 118.97 115.88 113.40 111.62 110.52 109.98 109.83 109.81 109.68 109.18 108.13 106.40 103.98 100.92 97.38 93.61 89.85 86.41 83.52 81.38 80.11 79.73 80.15 81.21 82.68 84.28 85.76 86.89 87.47 87.45 86.81 85.67 84.21 82.67 81.30 80.37 80.07 80.55 81.86 83.93 86.62 89.72 92.96 96.05 98.73 100.78 102.07 102.56 102.30 101.43 100.18 98.78 97.51 96.58 96.19 96.41
90.69 87.57 84.69 82.30 80.57 79.61 79.41 79.88 80.83 82.04 83.24 84.19 84.67 84.55 83.78 82.41 80.57 78.48 76.40 74.61 73.36 72.86 73.24 74.51 76.62 79.41 82.65 86.08 89.41 92.40 94.86 96.68 97.84 98.44 98.63 98.65 98.75 99.18 100.15 101.83 104.27 107.43 111.18 115.33 119.59 123.69 127.35 130.36 132.56 133.89 134.39 134.19 133.49 132.54 131.62 130.96 130.76 131.12 132.06 133.52 135.31 137.22 138.99 140.33 141.03 140.91 139.87 137.95 135.24 131.93 128.28 124.56 121.05 117.99 115.54 113.79 112.70 112.17 112.01 111.98 111.82 111.29 110.20 108.41 105.92 102.79 99.17 95.30 91.44 87.89 84.89 82.64 81.25 80.75 81.04 81.98 83.32 84.81 86.16 87.16 87.62 87.47 86.72 85.46 83.88 82.23 80.76 79.73 79.34 79.74 80.98 82.99 85.63 88.69 91.90 94.96 97.63 99.67 100.96 101.46 101.21 100.37 99.14 97.79 96.56 95.69 95.35 95.64
91.95 89.10 86.45 84.22 82.59 81.63 81.34 81.65 82.40 83.37 84.33 85.07 85.38 85.17 84.36 83.03 81.28 79.32 77.38 75.70 74.53 74.04 74.35 75.48 77.37 79.89 82.84 85.96 89.02 91.78 94.09 95.84 97.02 97.70 98.03 98.22 98.50 99.08 100.17 101.90 104.32 107.40 111.01 114.98 119.06 123.00 126.55 129.50 131.73 133.17 133.86 133.92 133.52 132.89 132.27 131.87 131.87 132.35 133.35 134.79 136.51 138.32 139.98 141.25 141.91 141.81 140.88 139.13 136.64 133.60 130.24 126.79 123.52 120.63 118.27 116.51 115.34 114.66 114.30 114.04 113.66 112.93 111.69 109.83 107.32 104.24 100.72 96.97 93.24 89.79 86.83 84.56 83.06 82.37 82.41 83.04 84.04 85.18 86.23 86.96 87.23 86.97 86.17 84.95 83.45 81.90 80.54 79.58 79.22 79.59 80.71 82.55 84.96 87.77 90.71 93.55 96.03 97.96 99.22 99.77 99.66 99.02 98.03 96.93 95.93 95.26 95.06 95.42
93.19 90.80 88.56 86.63 85.15 84.19 83.75 83.77 84.13 84.67 85.21 85.58 85.63 85.27 84.48 83.28 81.78 80.14 78.53 77.16 76.21 75.82 76.08 77.02 78.59 80.68 83.13 85.75 88.35 90.76 92.84 94.51 95.76 96.65 97.29 97.84 98.48 99.38 100.70 102.52 104.90 107.80 111.13 114.74 118.43 122.01 125.28 128.08 130.29 131.88 132.86 133.32 133.40 133.28 133.14 133.14 133.42 134.05 135.04 136.34 137.83 139.35 140.71 141.72 142.22 142.09 141.26 139.75 137.64 135.05 132.17 129.20 126.33 123.72 121.50 119.73 118.40 117.42 116.68 116.00 115.22 114.15 112.67 110.71 108.24 105.32 102.06 98.63 95.23 92.06 89.29 87.07 85.49 84.55 84.21 84.36 84.83 85.43 85.99 86.34 86.36 85.99 85.24 84.18 82.94 81.69 80.62 79.89 79.66 80.02 81.00 82.56 84.60 86.95 89.43 91.84 93.98 95.70 96.91 97.56 97.69 97.41 96.85 96.18 95.60 95.25 95.26 95.68
94.40 92.64 90.93 89.40 88.13 87.17 86.52 86.16 86.00 85.96 85.93 85.81 85.52 85.00 84.23 83.25 82.13 80.95 79.83 78.91 78.30 78.08 78.32 79.03 80.18 81.71 83.51 85.48 87.49 89.43 91.21 92.80 94.17 95.37 96.45 97.51 98.66 100.00 101.63 103.59 105.90 108.55 111.48 114.57 117.72 120.79 123.65 126.20 128.37 130.12 131.46 132.45 133.16 133.70 134.17 134.68 135.31 136.09 137.04 138.11 139.23 140.30 141.20 141.83 142.07 141.85 141.13 139.93 138.29 136.30 134.07 131.72 129.38 127.15 125.12 123.33 121.76 120.39 119.12 117.88 116.55 115.03 113.25 111.16 108.77 106.10 103.24 100.29 97.37 94.63 92.16 90.06 88.40 87.18 86.37 85.90 85.68 85.60 85.54 85.41 85.12 84.66 84.01 83.22 82.38 81.58 80.95 80.57 80.55 80.93 81.74 82.94 84.47 86.22 88.08 89.91 91.60 93.03 94.15 94.94 95.40 95.59 95.60 95.53 95.48 95.56 95.82 96.31
95.58 94.54 93.46 92.40 91.37 90.41 89.52 88.70 87.95 87.24 86.56 85.88 85.20 84.50 83.78 83.07 82.39 81.77 81.25 80.87 80.67 80.67 80.89 81.35 82.03 82.92 83.99 85.20 86.53 87.93 89.39 90.88 92.41 93.96 95.56 97.22 98.97 100.83 102.81 104.93 107.17 109.52 111.96 114.46 116.95 119.41 121.78 124.03 126.13 128.06 129.81 131.39 132.81 134.10 135.28 136.36 137.37 138.31 139.18 139.96 140.63 141.16 141.52 141.67 141.59 141.25 140.66 139.80 138.70 137.39 135.90 134.28 132.56 130.77 128.96 127.13 125.30 123.45 121.59 119.69 117.73 115.70 113.57 111.36 109.07 106.71 104.33 101.95 99.63 97.40 95.30 93.37 91.63 90.10 88.76 87.60 86.60 85.74 84.99 84.31 83.70 83.13 82.62 82.18 81.82 81.57 81.45 81.50 81.73 82.16 82.77 83.56 84.51 85.56 86.70 87.86 89.01 90.10 91.13 92.06 92.89 93.63 94.30 94.91 95.49 96.05 96.60 97.14
96.72 96.43 96.01 95.44 94.67 93.71 92.58 91.30 89.93 88.54 87.18 85.93 84.84 83.96 83.31 82.89 82.68 82.64 82.75 82.94 83.16 83.40 83.61 83.81 84.01 84.23 84.53 84.97 85.59 86.44 87.55 88.95 90.63 92.56 94.69 96.98 99.35 101.74 104.09 106.36 108.52 110.56 112.49 114.34 116.16 117.97 119.83 121.76 123.77 125.88 128.05 130.23 132.39 134.45 136.35 138.02 139.42 140.51 141.29 141.77 141.97 141.93 141.72 141.38 140.96 140.50 140.02 139.52 138.98 138.38 137.67 136.80 135.72 134.40 132.81 130.96 128.85 126.53 124.04 121.46 118.86 116.29 113.82 111.49 109.31 107.29 105.41 103.64 101.93 100.25 98.55 96.80 95.00 93.14 91.25 89.39 87.59 85.93 84.45 83.22 82.27 81.61 81.25 81.16 81.30 81.62 82.05 82.54 83.04 83.51 83.92 84.28 84.62 84.95 85.32 85.78 86.37 87.11 88.03 89.10 90.32 91.63 92.98 94.29 95.50 96.55 97.40 98.00
97.81 98.24 98.45 98.34 97.83 96.88 95.52 93.82 91.89 89.85 87.87 86.09 84.64 83.59 83.00 82.84 83.07 83.59 84.27 84.99 85.62 86.07 86.27 86.23 85.96 85.56 85.14 84.84 84.79 85.12 85.91 87.21 89.02 91.29 93.92 96.77 99.71 102.59 105.28 107.68 109.76 111.49 112.95 114.20 115.37 116.57 117.94 119.57 121.51 123.77 126.32 129.08 131.92 134.70 137.27 139.50 141.26 142.51 143.21 143.40 143.17 142.61 141.86 141.07 140.34 139.77 139.41 139.26 139.26 139.33 139.35 139.19 138.73 137.84 136.48 134.60 132.25 129.49 126.43 123.23 120.03 116.97 114.18 111.74 109.67 107.97 106.56 105.36 104.23 103.06 101.73 100.15 98.28 96.12 93.73 91.19 88.64 86.22 84.07 82.31 81.03 80.28 80.05 80.29 80.89 81.73 82.66 83.55 84.29 84.78 85.00 84.95 84.70 84.34 83.99 83.79 83.84 84.25 85.05 86.26 87.83 89.66 91.64 93.60 95.40 96.92 98.03 98.68
98.86 99.90 100.65 100.93 100.64 99.72 98.20 96.16 93.76 91.21 88.72 86.51 84.75 83.56 83.02 83.08 83.67 84.64 85.79 86.94 87.89 88.51 88.69 88.42 87.76 86.83 85.80 84.87 84.26 84.13 84.63 85.84 87.75 90.28 93.29 96.61 100.00 103.27 106.22 108.72 110.71 112.19 113.23 113.98 114.61 115.31 116.28 117.65 119.52 121.92 124.79 128.02 131.43 134.82 137.95 140.64 142.72 144.11 144.76 144.74 144.15 143.18 142.02 140.86 139.90 139.27 139.02 139.17 139.63 140.28 140.93 141.38 141.43 140.93 139.76 137.89 135.34 132.23 128.72 125.01 121.33 117.88 114.83 112.29 110.32 108.88 107.87 107.13 106.48 105.72 104.69 103.24 101.30 98.88 96.05 92.95 89.76 86.69 83.96 81.75 80.18 79.33 79.19 79.66 80.62 81.87 83.19 84.39 85.30 85.79 85.83 85.42 84.67 83.72 82.76 81.99 81.59 81.70 82.40 83.71 85.56 87.82 90.30 92.80 95.09 96.97 98.31 99.01
99.86 101.35 102.49 103.08 102.97 102.09 100.46 98.21 95.51 92.61 89.78 87.28 85.31 84.03 83.51 83.72 84.55 85.81 87.27 88.70 89.85 90.55 90.70 90.26 89.30 87.98 86.50 85.12 84.08 83.61 83.89 85.00 86.94 89.62 92.87 96.47 100.15 103.66 106.77 109.32 111.23 112.51 113.27 113.66 113.91 114.26 114.94 116.14 117.97 120.47 123.57 127.13 130.95 134.76 138.30 141.33 143.66 145.16 145.80 145.66 144.87 143.65 142.23 140.87 139.78 139.13 139.00 139.39 140.21 141.28 142.39 143.28 143.73 143.52 142.51 140.66 138.01 134.68 130.87 126.83 122.83 119.12 115.90 113.31 111.40 110.14 109.38 108.96 108.62 108.13 107.28 105.90 103.90 101.28 98.12 94.60 90.94 87.40 84.23 81.67 79.87 78.91 78.78 79.39 80.55 82.03 83.58 84.95 85.94 86.40 86.27 85.58 84.45 83.07 81.66 80.48 79.74 79.62 80.24 81.59 83.62 86.15 88.98 91.83 94.46 96.60 98.10 98.83
100.81 102.55 103.91 104.68 104.68 103.86 102.22 99.90 97.10 94.07 91.10 88.48 86.42 85.10 84.59 84.85 85.76 87.12 88.69 90.20 91.41 92.11 92.19 91.63 90.50 88.96 87.23 85.59 84.32 83.65 83.77 84.79 86.69 89.39 92.69 96.37 100.13 103.70 106.84 109.37 111.22 112.39 112.99 113.21 113.29 113.48 114.03 115.16 116.97 119.52 122.74 126.47 130.49 134.52 138.27 141.49 143.96 145.55 146.25 146.10 145.28 144.00 142.54 141.14 140.06 139.47 139.45 140.01 141.03 142.35 143.72 144.87 145.53 145.50 144.61 142.82 140.16 136.77 132.86 128.70 124.58 120.77 117.49 114.88 113.00 111.81 111.16 110.85 110.63 110.23 109.43 108.04 105.96 103.21 99.86 96.10 92.17 88.37 84.95 82.17 80.19 79.12 78.93 79.51 80.69 82.20 83.78 85.16 86.11 86.49 86.22 85.35 84.00 82.37 80.72 79.30 78.37 78.12 78.66 80.01 82.09 84.73 87.69 90.69 93.45 95.71 97.28 98.04
101.70 103.47 104.87 105.68 105.75 104.99 103.45 101.22 98.51 95.58 92.70 90.14 88.12 86.81 86.27 86.48 87.31 88.57 90.03 91.43 92.52 93.12 93.13 92.50 91.32 89.74 87.99 86.32 85.01 84.29 84.34 85.26 87.04 89.61 92.77 96.30 99.91 103.35 106.39 108.84 110.64 111.79 112.40 112.64 112.75 112.98 113.58 114.74 116.58 119.13 122.34 126.06 130.06 134.08 137.83 141.07 143.58 145.26 146.05 146.04 145.37 144.25 142.95 141.72 140.79 140.32 140.41 141.06 142.15 143.52 144.92 146.11 146.81 146.83 146.01 144.31 141.75 138.47 134.68 130.63 126.61 122.87 119.64 117.06 115.16 113.92 113.21 112.81 112.48 111.98 111.08 109.60 107.45 104.63 101.23 97.43 93.47 89.61 86.14 83.28 81.20 80.00 79.66 80.07 81.06 82.39 83.78 84.98 85.77 86.01 85.64 84.69 83.28 81.62 79.94 78.50 77.54 77.25 77.73 79.01 81.01 83.56 86.43 89.36 92.05 94.28 95.83 96.61
102.52 104.13 105.38 106.11 106.17 105.51 104.13 102.16 99.76 97.14 94.56 92.24 90.39 89.14 88.55 88.60 89.19 90.16 91.29 92.37 93.20 93.62 93.52 92.88 91.78 90.35 88.77 87.29 86.14 85.51 85.56 86.39 87.99 90.28 93.10 96.26 99.52 102.65 105.44 107.75 109.51 110.72 111.48 111.94 112.30 112.78 113.58 114.88 116.77 119.28 122.37 125.90 129.67 133.45 137.00 140.10 142.56 144.29 145.24 145.48 145.14 144.40 143.47 142.59 141.94 141.68 141.88 142.52 143.54 144.76 145.99 147.01 147.58 147.53 146.74 145.14 142.79 139.78 136.31 132.60 128.89 125.40 122.33 119.80 117.86 116.47 115.51 114.82 114.19 113.39 112.25 110.60 108.37 105.56 102.25 98.60 94.81 91.13 87.79 84.99 82.88 81.54 80.96 81.06 81.66 82.58 83.57 84.42 84.94 85.00 84.56 83.63 82.33 80.82 79.32 78.05 77.22 76.98 77.43 78.58 80.37 82.65 85.22 87.84 90.27 92.30 93.76 94.55
103.29 104.54 105.50 106.03 106.03 105.47 104.35 102.77 100.84 98.74 96.64 94.72 93.14 92.00 91.33 91.15 91.36 91.86 92.49 93.09 93.52 93.66 93.44 92.84 91.93 90.80 89.59 88.48 87.65 87.24 87.37 88.11 89.45 91.34 93.67 96.27 98.99 101.64 104.07 106.18 107.91 109.27 110.31 111.15 111.94 112.83 113.98 115.50 117.47 119.90 122.76 125.94 129.30 132.65 135.82 138.64 140.97 142.73 143.89 144.49 144.63 144.44 144.07 143.70 143.46 143.46 143.76 144.34 145.15 146.06 146.93 147.60 147.89 147.67 146.85 145.40 143.34 140.76 137.79 134.60 131.38 128.29 125.48 123.04 121.01 119.37 118.03 116.88 115.76 114.51 112.99 111.11 108.79 106.06 102.96 99.63 96.21 92.89 89.84 87.22 85.14 83.66 82.77 82.41 82.47 82.79 83.21 83.56 83.70 83.54 83.04 82.22 81.17 80.00 78.87 77.94 77.36 77.25 77.68 78.65 80.11 81.96 84.04 86.17 88.17 89.88 91.17 91.96
103.99 104.75 105.30 105.55 105.46 105.01 104.21 103.11 101.79 100.35 98.87 97.48 96.25 95.24 94.50 94.01 93.74 93.65 93.64 93.64 93.57 93.38 93.02 92.51 91.86 91.15 90.45 89.85 89.46 89.36 89.62 90.27 91.31 92.71 94.41 96.33 98.36 100.41 102.40 104.27 105.98 107.53 108.95 110.29 111.64 113.07 114.67 116.48 118.54 120.87 123.42 126.14 128.95 131.73 134.38 136.81 138.94 140.72 142.12 143.16 143.89 144.38 144.71 144.97 145.22 145.53 145.92 146.39 146.89 147.38 147.75 147.93 147.83 147.37 146.50 145.21 143.51 141.45 139.12 136.60 134.01 131.43 128.95 126.63 124.49 122.53 120.71 118.97 117.22 115.40 113.43 111.25 108.86 106.24 103.46 100.56 97.66 94.84 92.21 89.85 87.84 86.21 84.96 84.06 83.44 83.03 82.74 82.48 82.16 81.75 81.22 80.58 79.88 79.17 78.54 78.07 77.85 77.93 78.35 79.10 80.16 81.45 82.90 84.39 85.83 87.11 88.17 88.96
104.62 104.83 104.89 104.82 104.62 104.29 103.85 103.30 102.66 101.95 101.18 100.37 99.54 98.70 97.86 97.04 96.25 95.49 94.78 94.11 93.49 92.94 92.45 92.03 91.71 91.47 91.35 91.35 91.47 91.74 92.15 92.71 93.42 94.29 95.29 96.44 97.71 99.10 100.60 102.20 103.89 105.66 107.50 109.42 111.40 113.43 115.52 117.66 119.83 122.02 124.22 126.42 128.59 130.72 132.78 134.77 136.66 138.43 140.09 141.61 143.00 144.24 145.33 146.28 147.07 147.71 148.19 148.52 148.67 148.66 148.47 148.09 147.53 146.78 145.85 144.73 143.43 141.96 140.34 138.57 136.68 134.67 132.57 130.39 128.13 125.82 123.46 121.06 118.62 116.16 113.69 111.21 108.73 106.27 103.84 101.46 99.14 96.90 94.76 92.73 90.82 89.04 87.39 85.90 84.54 83.33 82.25 81.31 80.51 79.83 79.28 78.85 78.55 78.36 78.31 78.37 78.56 78.86 79.27 79.78 80.38 81.05 81.79 82.56 83.36 84.17 84.97 85.74
105.18 104.83 104.42 104.03 103.72 103.52 103.43 103.44 103.49 103.53 103.47 103.26 102.83 102.16 101.24 100.09 98.78 97.36 95.94 94.60 93.44 92.53 91.90 91.60 91.59 91.85 92.31 92.90 93.55 94.18 94.75 95.23 95.61 95.93 96.24 96.61 97.12 97.84 98.84 100.17 101.83 103.82 106.09 108.57 111.18 113.82 116.40 118.86 121.13 123.18 125.02 126.68 128.21 129.67 131.13 132.66 134.30 136.08 137.99 139.99 142.03 144.02 145.88 147.51 148.85 149.82 150.39 150.56 150.36 149.85 149.08 148.15 147.13 146.09 145.09 144.15 143.25 142.38 141.48 140.47 139.29 137.87 136.15 134.11 131.74 129.08 126.18 123.13 120.01 116.92 113.94 111.16 108.61 106.31 104.25 102.39 100.67 99.02 97.37 95.66 93.86 91.93 89.90 87.81 85.71 83.69 81.83 80.21 78.91 77.96 77.39 77.17 77.27 77.62 78.14 78.74 79.33 79.84 80.24 80.50 80.64 80.68 80.70 80.74 80.90 81.21 81.74 82.50
105.67 104.83 104.00 103.34 102.94 102.87 103.12 103.64 104.33 105.05 105.65 105.98 105.93 105.42 104.43 103.00 101.22 99.21 97.16 95.22 93.57 92.33 91.59 91.37 91.66 92.35 93.34 94.47 95.58 96.54 97.24 97.63 97.71 97.53 97.19 96.85 96.66 96.76 97.30 98.37 100.00 102.17 104.81 107.80 110.96 114.14 117.16 119.89 122.24 124.16 125.67 126.84 127.78 128.64 129.55 130.67 132.09 133.86 135.99 138.42 141.05 143.73 146.28 148.54 150.37 151.64 152.31 152.36 151.85 150.88 149.61 148.18 146.76 145.48 144.43 143.66 143.14 142.82 142.58 142.27 141.75 140.86 139.50 137.59 135.14 132.17 128.80 125.16 121.42 117.77 114.35 111.29 108.68 106.52 104.80 103.41 102.22 101.11 99.90 98.49 96.77 94.71 92.32 89.68 86.90 84.14 81.56 79.32 77.56 76.35 75.75 75.71 76.16 76.98 78.00 79.06 80.00 80.70 81.08 81.10 80.80 80.27 79.62 79.00 78.56 78.43 78.70 79.43
106.09 104.88 103.75 102.90 102.46 102.51 103.05 104.00 105.22 106.49 107.63 108.41 108.67 108.30 107.27 105.62 103.48 101.01 98.46 96.05 94.01 92.51 91.67 91.53 92.03 93.06 94.45 95.98 97.44 98.64 99.43 99.73 99.55 98.95 98.09 97.17 96.40 96.00 96.15 96.99 98.58 100.88 103.79 107.15 110.73 114.31 117.66 120.60 123.00 124.80 126.04 126.81 127.29 127.66 128.15 128.93 130.18 131.95 134.27 137.05 140.15 143.37 146.49 149.26 151.49 153.02 153.77 153.74 153.01 151.72 150.07 148.28 146.56 145.11 144.04 143.43 143.24 143.37 143.67 143.93 143.94 143.50 142.43 140.66 138.14 134.95 131.21 127.12 122.91 118.81 115.05 111.78 109.12 107.08 105.60 104.58 103.81 103.10 102.24 101.03 99.37 97.18 94.49 91.39 88.06 84.69 81.52 78.77 76.61 75.18 74.52 74.60 75.30 76.46 77.85 79.25 80.44 81.26 81.60 81.41 80.75 79.74 78.55 77.38 76.46 75.96 76.03 76.73
106.42 105.04 103.77 102.84 102.42 102.59 103.36 104.61 106.18 107.85 109.34 110.43 110.91 110.66 109.62 107.84 105.48 102.74 99.87 97.17 94.88 93.21 92.30 92.18 92.80 94.03 95.64 97.40 99.06 100.37 101.19 101.40 101.01 100.12 98.90 97.57 96.40 95.64 95.52 96.18 97.70 100.04 103.09 106.65 110.47 114.28 117.81 120.85 123.26 124.97 126.02 126.54 126.71 126.78 126.99 127.58 128.72 130.50 132.94 135.96 139.38 142.97 146.46 149.58 152.09 153.81 154.65 154.61 153.77 152.31 150.46 148.48 146.62 145.10 144.07 143.59 143.64 144.10 144.77 145.43 145.81 145.67 144.82 143.15 140.62 137.30 133.36 129.00 124.50 120.14 116.16 112.76 110.06 108.08 106.76 105.95 105.42 104.95 104.27 103.17 101.51 99.21 96.29 92.88 89.15 85.36 81.78 78.66 76.21 74.59 73.85 73.95 74.77 76.09 77.66 79.23 80.54 81.40 81.66 81.31 80.39 79.04 77.48 75.95 74.70 73.95 73.86 74.53
106.69 105.34 104.11 103.24 102.90 103.19 104.09 105.51 107.25 109.09 110.75 111.98 112.57 112.39 111.37 109.59 107.18 104.36 101.41 98.61 96.24 94.51 93.55 93.41 94.04 95.28 96.92 98.70 100.36 101.66 102.41 102.54 102.03 100.98 99.57 98.05 96.69 95.76 95.48 96.02 97.45 99.74 102.77 106.33 110.17 113.99 117.53 120.57 122.94 124.60 125.57 125.99 126.05 126.02 126.15 126.68 127.80 129.61 132.11 135.22 138.77 142.51 146.16 149.44 152.09 153.93 154.86 154.88 154.08 152.64 150.80 148.84 147.01 145.54 144.59 144.23 144.42 145.05 145.91 146.74 147.29 147.31 146.58 144.98 142.49 139.17 135.19 130.78 126.22 121.78 117.74 114.30 111.58 109.61 108.32 107.54 107.06 106.61 105.94 104.83 103.11 100.71 97.66 94.07 90.16 86.16 82.37 79.05 76.44 74.67 73.82 73.84 74.60 75.88 77.43 78.97 80.23 81.02 81.19 80.71 79.65 78.14 76.41 74.72 73.32 72.46 72.30 72.93
106.87 105.77 104.78 104.11 103.93 104.32 105.28 106.71 108.43 110.22 111.84 113.04 113.62 113.46 112.52 110.83 108.55 105.87 103.07 100.39 98.11 96.42 95.45 95.24 95.75 96.83 98.28 99.87 101.33 102.46 103.09 103.12 102.56 101.50 100.11 98.62 97.29 96.37 96.07 96.54 97.87 100.01 102.85 106.21 109.83 113.45 116.82 119.72 122.02 123.65 124.65 125.14 125.31 125.40 125.64 126.27 127.45 129.29 131.79 134.86 138.35 142.01 145.60 148.83 151.47 153.35 154.37 154.53 153.91 152.69 151.09 149.35 147.74 146.45 145.65 145.37 145.61 146.24 147.07 147.87 148.39 148.38 147.66 146.12 143.72 140.53 136.71 132.46 128.05 123.76 119.82 116.44 113.72 111.69 110.29 109.36 108.70 108.07 107.23 105.96 104.12 101.65 98.55 94.96 91.06 87.08 83.30 79.97 77.31 75.45 74.45 74.28 74.81 75.85 77.14 78.44 79.49 80.10 80.15 79.61 78.52 77.03 75.35 73.71 72.36 71.53 71.37 71.96
106.97 106.34 105.76 105.42 105.47 105.96 106.89 108.18 109.70 111.24 112.62 113.62 114.09 113.92 113.07 111.60 109.61 107.28 104.83 102.48 100.45 98.90 97.95 97.63 97.90 98.66 99.72 100.91 102.00 102.83 103.25 103.19 102.65 101.72 100.53 99.28 98.18 97.44 97.24 97.71 98.90 100.80 103.31 106.26 109.46 112.67 115.70 118.36 120.54 122.17 123.30 124.02 124.49 124.90 125.44 126.31 127.65 129.53 131.96 134.86 138.10 141.48 144.78 147.77 150.27 152.11 153.22 153.59 153.30 152.48 151.32 150.02 148.79 147.80 147.18 146.98 147.16 147.64 148.25 148.81 149.10 148.92 148.12 146.60 144.35 141.40 137.91 134.03 130.00 126.05 122.37 119.12 116.42 114.28 112.64 111.39 110.36 109.35 108.15 106.61 104.60 102.06 99.01 95.56 91.87 88.12 84.56 81.39 78.79 76.88 75.71 75.25 75.39 75.98 76.81 77.67 78.35 78.69 78.59 78.02 77.03 75.73 74.29 72.91 71.80 71.13 71.04 71.59
107.00 107.00 106.98 107.09 107.41 107.99 108.83 109.88 111.03 112.16 113.12 113.79 114.06 113.85 113.14 111.97 110.41 108.60 106.69 104.83 103.18 101.86 100.95 100.48 100.43 100.72 101.23 101.85 102.42 102.83 102.98 102.83 102.38 101.69 100.85 100.01 99.31 98.91 98.91 99.42 100.47 102.05 104.09 106.47 109.07 111.71 114.26 116.58 118.60 120.27 121.61 122.69 123.61 124.50 125.50 126.73 128.29 130.22 132.52 135.14 137.98 140.90 143.74 146.34 148.57 150.31 151.51 152.16 152.31 152.04 151.48 150.79 150.09 149.50 149.11 148.95 149.00 149.20 149.44 149.58 149.48 149.00 148.03 146.52 144.45 141.86 138.83 135.50 132.03 128.58 125.28 122.26 119.58 117.28 115.31 113.59 112.02 110.46 108.78 106.86 104.62 102.03 99.11 95.93 92.60 89.27 86.10 83.23 80.79 78.87 77.49 76.66 76.29 76.26 76.46 76.71 76.89 76.88 76.61 76.06 75.26 74.29 73.26 72.31 71.57 71.18 71.21 71.72
106.94 107.69 108.35 108.98 109.61 110.28 110.98 111.70 112.38 112.97 113.42 113.67 113.67 113.40 112.85 112.04 111.01 109.84 108.59 107.35 106.18 105.15 104.30 103.66 103.21 102.94 102.80 102.73 102.67 102.58 102.43 102.19 101.87 101.50 101.13 100.82 100.64 100.67 100.95 101.53 102.43 103.63 105.11 106.82 108.68 110.63 112.60 114.52 116.35 118.07 119.68 121.21 122.70 124.19 125.75 127.42 129.24 131.22 133.36 135.62 137.95 140.28 142.54 144.64 146.52 148.11 149.40 150.36 151.02 151.41 151.58 151.60 151.53 151.41 151.27 151.15 151.01 150.85 150.60 150.20 149.60 148.73 147.55 146.03 144.17 141.99 139.54 136.89 134.10 131.26 128.43 125.68 123.05 120.56 118.18 115.91 113.69 111.47 109.20 106.83 104.34 101.71 98.97 96.15 93.31 90.51 87.84 85.38 83.17 81.26 79.67 78.40 77.42 76.68 76.11 75.65 75.24 74.82 74.36 73.86 73.31 72.76 72.25 71.84 71.59 71.55 71.75 72.20
106.81 108.36 109.74 110.92 111.89 112.64 113.19 113.53 113.70 113.71 113.59 113.38 113.09 112.75 112.37 111.95 111.51 111.03 110.51 109.93 109.29 108.58 107.81 106.99 106.13 105.25 104.40 103.59 102.87 102.26 101.78 101.45 101.28 101.27 101.41 101.69 102.09 102.60 103.19 103.85 104.59 105.39 106.28 107.25 108.33 109.53 110.87 112.36 113.99 115.76 117.67 119.68 121.78 123.92 126.08 128.22 130.32 132.35 134.30 136.16 137.94 139.62 141.24 142.78 144.27 145.69 147.06 148.35 149.56 150.65 151.60 152.39 152.98 153.35 153.49 153.39 153.05 152.47 151.69 150.70 149.55 148.25 146.83 145.30 143.67 141.94 140.12 138.19 136.15 133.97 131.67 129.22 126.64 123.95 121.14 118.27 115.35 112.42 109.52 106.68 103.93 101.28 98.74 96.32 94.02 91.82 89.71 87.69 85.75 83.87 82.06 80.34 78.70 77.18 75.80 74.58 73.53 72.68 72.03 71.58 71.32 71.23 71.30 71.48 71.75 72.09 72.47 72.87
106.60 108.94 111.01 112.73 114.03 114.88 115.27 115.26 114.93 114.38 113.72 113.06 112.49 112.09 111.89 111.87 112.00 112.20 112.39 112.47 112.35 111.96 111.27 110.27 109.02 107.56 106.02 104.51 103.13 102.01 101.22 100.81 100.79 101.13 101.77 102.62 103.58 104.55 105.44 106.19 106.77 107.18 107.48 107.73 108.04 108.51 109.23 110.28 111.71 113.53 115.72 118.20 120.88 123.65 126.39 128.98 131.35 133.42 135.18 136.65 137.87 138.92 139.90 140.90 142.00 143.26 144.70 146.31 148.05 149.82 151.53 153.06 154.30 155.16 155.57 155.49 154.95 153.98 152.67 151.12 149.43 147.72 146.07 144.53 143.13 141.86 140.65 139.44 138.12 136.61 134.82 132.67 130.15 127.26 124.05 120.60 117.01 113.40 109.89 106.60 103.59 100.91 98.58 96.56 94.78 93.17 91.62 90.03 88.35 86.50 84.48 82.30 80.03 77.76 75.58 73.61 71.94 70.66 69.82 69.42 69.43 69.79 70.40 71.16 71.94 72.64 73.19 73.53
106.31 109.35 112.05 114.26 115.86 116.79 117.07 116.78 116.03 115.00 113.88 112.85 112.07 111.63 111.59 111.93 112.56 113.38 114.20 114.86 115.20 115.10 114.48 113.34 111.74 109.79 107.65 105.52 103.58 102.01 100.94 100.45 100.56 101.20 102.26 103.60 105.04 106.40 107.54 108.34 108.77 108.83 108.60 108.22 107.84 107.65 107.82 108.48 109.72 111.57 113.98 116.85 120.03 123.34 126.57 129.55 132.13 134.24 135.82 136.94 137.67 138.17 138.60 139.12 139.88 141.00 142.51 144.40 146.61 148.98 151.36 153.55 155.36 156.65 157.30 157.26 156.55 155.26 153.51 151.48 149.34 147.29 145.45 143.93 142.74 141.87 141.21 140.63 139.97 139.05 137.71 135.84 133.38 130.34 126.77 122.82 118.65 114.45 110.42 106.73 103.50 100.81 98.65 96.97 95.65 94.54 93.46 92.25 90.78 88.94 86.72 84.15 81.31 78.37 75.48 72.84 70.62 68.95 67.92 67.55 67.78 68.51 69.59 70.82 72.03 73.04 73.71 73.99
105.95 109.53 112.73 115.33 117.19 118.22 118.45 117.97 116.94 115.59 114.16 112.88 111.96 111.52 111.63 112.25 113.30 114.58 115.89 117.00 117.70 117.82 117.27 116.03 114.18 111.85 109.27 106.67 104.30 102.39 101.11 100.55 100.73 101.57 102.94 104.62 106.40 108.03 109.33 110.15 110.43 110.20 109.55 108.66 107.75 107.04 106.77 107.12 108.19 110.03 112.59 115.73 119.27 122.95 126.53 129.78 132.52 134.63 136.08 136.93 137.30 137.38 137.39 137.56 138.08 139.09 140.66 142.78 145.34 148.18 151.08 153.77 156.04 157.67 158.52 158.54 157.73 156.22 154.17 151.80 149.37 147.08 145.13 143.64 142.65 142.10 141.88 141.80 141.64 141.18 140.20 138.55 136.15 133.00 129.19 124.88 120.28 115.65 111.23 107.24 103.84 101.13 99.10 97.66 96.67 95.91 95.17 94.22 92.88 91.04 88.64 85.74 82.46 78.98 75.54 72.37 69.70 67.71 66.51 66.13 66.49 67.47 68.86 70.43 71.92 73.13 73.88 74.08
105.50 109.45 112.97 115.85 117.90 119.05 119.30 118.77 117.64 116.16 114.61 113.24 112.28 111.89 112.12 112.95 114.25 115.83 117.44 118.82 119.74 120.01 119.50 118.22 116.23 113.70 110.86 107.99 105.38 103.26 101.83 101.21 101.41 102.34 103.84 105.68 107.60 109.34 110.69 111.47 111.64 111.19 110.27 109.05 107.79 106.75 106.19 106.31 107.25 109.05 111.65 114.90 118.60 122.46 126.21 129.58 132.39 134.48 135.85 136.53 136.69 136.54 136.32 136.30 136.69 137.66 139.28 141.55 144.34 147.46 150.67 153.69 156.25 158.11 159.11 159.20 158.38 156.79 154.62 152.12 149.56 147.20 145.24 143.81 142.96 142.64 142.70 142.94 143.10 142.92 142.18 140.68 138.34 135.15 131.22 126.71 121.89 117.02 112.38 108.22 104.73 101.99 100.01 98.69 97.85 97.27 96.68 95.84 94.54 92.65 90.11 86.98 83.40 79.58 75.77 72.26 69.29 67.07 65.72 65.27 65.66 66.72 68.24 69.94 71.54 72.82 73.57 73.69
104.99 109.07 112.73 115.74 117.93 119.19 119.56 119.13 118.10 116.71 115.25 113.97 113.10 112.80 113.13 114.05 115.45 117.12 118.82 120.29 121.27 121.58 121.11 119.84 117.84 115.29 112.42 109.51 106.84 104.67 103.19 102.52 102.66 103.54 104.98 106.77 108.62 110.29 111.56 112.25 112.31 111.75 110.70 109.36 107.97 106.80 106.12 106.13 106.97 108.68 111.20 114.40 118.04 121.85 125.56 128.90 131.67 133.73 135.06 135.71 135.84 135.65 135.42 135.39 135.79 136.79 138.45 140.77 143.64 146.85 150.16 153.27 155.93 157.90 159.00 159.18 158.46 156.95 154.86 152.45 149.97 147.69 145.82 144.49 143.75 143.54 143.71 144.06 144.32 144.24 143.58 142.15 139.87 136.72 132.80 128.30 123.47 118.58 113.93 109.74 106.22 103.45 101.44 100.09 99.22 98.59 97.96 97.06 95.68 93.70 91.06 87.82 84.11 80.15 76.20 72.54 69.44 67.08 65.61 65.05 65.33 66.30 67.72 69.33 70.86 72.05 72.71 72.75
104.40 108.40 112.01 115.02 117.26 118.65 119.22 119.05 118.32 117.24 116.08 115.07 114.42 114.26 114.66 115.58 116.91 118.47 120.04 121.38 122.27 122.53 122.07 120.87 119.01 116.62 113.94 111.21 108.70 106.63 105.18 104.46 104.48 105.17 106.37 107.88 109.46 110.87 111.93 112.47 112.44 111.87 110.86 109.59 108.29 107.20 106.57 106.58 107.35 108.93 111.27 114.22 117.59 121.14 124.60 127.74 130.37 132.37 133.71 134.45 134.73 134.73 134.69 134.85 135.39 136.48 138.17 140.47 143.25 146.34 149.52 152.52 155.10 157.03 158.18 158.48 157.94 156.69 154.89 152.77 150.59 148.57 146.90 145.70 145.02 144.79 144.90 145.15 145.30 145.13 144.40 142.96 140.72 137.68 133.93 129.64 125.02 120.35 115.86 111.80 108.32 105.52 103.40 101.87 100.77 99.89 99.00 97.86 96.30 94.19 91.48 88.23 84.57 80.68 76.82 73.23 70.15 67.77 66.20 65.46 65.51 66.20 67.31 68.62 69.86 70.81 71.31 71.25
103.75 107.46 110.84 113.71 115.95 117.49 118.33 118.56 118.30 117.75 117.09 116.51 116.18 116.22 116.65 117.47 118.59 119.86 121.10 122.13 122.78 122.92 122.45 121.38 119.76 117.72 115.42 113.08 110.91 109.08 107.75 106.99 106.82 107.19 107.97 109.02 110.13 111.12 111.84 112.18 112.09 111.59 110.76 109.75 108.74 107.93 107.50 107.61 108.36 109.77 111.80 114.35 117.26 120.33 123.35 126.14 128.54 130.46 131.87 132.82 133.40 133.78 134.13 134.63 135.44 136.68 138.40 140.58 143.14 145.94 148.78 151.46 153.78 155.57 156.71 157.15 156.89 156.03 154.71 153.09 151.39 149.78 148.41 147.38 146.71 146.37 146.26 146.21 146.06 145.60 144.68 143.15 140.96 138.10 134.65 130.73 126.54 122.28 118.15 114.34 110.98 108.14 105.83 103.99 102.48 101.16 99.82 98.30 96.44 94.16 91.43 88.28 84.81 81.20 77.62 74.29 71.39 69.07 67.42 66.47 66.17 66.41 67.02 67.81 68.59 69.17 69.42 69.25
103.02 106.29 109.30 111.94 114.12 115.80 116.99 117.72 118.10 118.22 118.21 118.20 118.28 118.54 119.00 119.64 120.43 121.25 122.02 122.60 122.90 122.83 122.35 121.45 120.17 118.61 116.87 115.08 113.39 111.92 110.76 109.97 109.57 109.52 109.76 110.18 110.67 111.11 111.42 111.51 111.37 111.00 110.47 109.87 109.31 108.93 108.83 109.12 109.86 111.07 112.72 114.74 117.03 119.45 121.89 124.20 126.30 128.12 129.64 130.88 131.90 132.80 133.69 134.67 135.85 137.29 139.02 141.03 143.25 145.59 147.94 150.14 152.08 153.63 154.72 155.30 155.40 155.05 154.34 153.39 152.32 151.24 150.24 149.40 148.72 148.18 147.71 147.23 146.61 145.74 144.51 142.84 140.69 138.06 135.01 131.63 128.02 124.34 120.70 117.25 114.06 111.18 108.64 106.38 104.33 102.40 100.47 98.44 96.21 93.74 91.00 88.03 84.90 81.70 78.58 75.65 73.05 70.86 69.16 67.95 67.21 66.87 66.82 66.95 67.11 67.21 67.15 66.88
102.23 104.95 107.50 109.84 111.93 113.76 115.33 116.64 117.73 118.63 119.37 120.01 120.56 121.07 121.54 121.96 122.34 122.63 122.82 122.87 122.74 122.43 121.93 121.23 120.36 119.37 118.28 117.16 116.05 115.01 114.07 113.26 112.59 112.07 111.67 111.37 111.14 110.96 110.78 110.61 110.42 110.24 110.08 109.98 109.98 110.12 110.43 110.95 111.71 112.69 113.90 115.31 116.87 118.55 120.30 122.06 123.81 125.52 127.16 128.75 130.29 131.80 133.32 134.87 136.48 138.14 139.88 141.67 143.48 145.28 147.01 148.64 150.09 151.34 152.35 153.10 153.59 153.82 153.83 153.64 153.29 152.82 152.25 151.61 150.89 150.10 149.21 148.19 147.01 145.63 144.02 142.17 140.07 137.71 135.13 132.37 129.46 126.45 123.42 120.39 117.40 114.49 111.67 108.93 106.26 103.63 101.02 98.40 95.75 93.07 90.35 87.62 84.89 82.23 79.66 77.24 75.01 73.01 71.26 69.77 68.53 67.53 66.72 66.07 65.54 65.08 64.68 64.29
101.38 103.52 105.57 107.58 109.57 111.55 113.51 115.42 117.26 118.96 120.49 121.80 122.85 123.61 124.09 124.28 124.22 123.96 123.54 123.02 122.46 121.90 121.37 120.89 120.46 120.06 119.67 119.24 118.76 118.17 117.47 116.65 115.71 114.69 113.64 112.60 111.62 110.78 110.11 109.66 109.44 109.46 109.70 110.14 110.72 111.41 112.16 112.93 113.70 114.46 115.20 115.97 116.78 117.67 118.70 119.88 121.26 122.84 124.62 126.57 128.65 130.81 132.98 135.12 137.16 139.06 140.79 142.34 143.72 144.93 146.03 147.03 147.98 148.90 149.82 150.73 151.62 152.46 153.20 153.81 154.21 154.37 154.25 153.81 153.05 151.99 150.64 149.06 147.28 145.38 143.38 141.34 139.28 137.21 135.13 133.02 130.84 128.56 126.15 123.57 120.82 117.88 114.77 111.54 108.21 104.86 101.55 98.32 95.24 92.35 89.66 87.18 84.90 82.79 80.82 78.93 77.11 75.31 73.52 71.75 70.00 68.30 66.70 65.25 63.98 62.95 62.18 61.69
100.47 102.05 103.65 105.35 107.25 109.37 111.70 114.19 116.73 119.20 121.48 123.43 124.95 125.97 126.45 126.44 125.98 125.20 124.22 123.18 122.21 121.42 120.88 120.61 120.60 120.77 121.04 121.28 121.39 121.24 120.77 119.93 118.75 117.27 115.60 113.85 112.18 110.72 109.58 108.87 108.62 108.82 109.44 110.37 111.50 112.71 113.86 114.86 115.64 116.17 116.48 116.63 116.71 116.86 117.20 117.83 118.85 120.31 122.20 124.48 127.06 129.81 132.60 135.29 137.74 139.85 141.57 142.89 143.85 144.51 144.99 145.41 145.87 146.49 147.31 148.38 149.65 151.06 152.51 153.86 154.98 155.74 156.04 155.80 155.01 153.70 151.93 149.82 147.50 145.10 142.75 140.54 138.53 136.74 135.14 133.65 132.17 130.59 128.77 126.63 124.09 121.14 117.77 114.07 110.14 106.12 102.14 98.35 94.86 91.77 89.11 86.88 85.02 83.43 82.01 80.64 79.19 77.58 75.75 73.70 71.46 69.11 66.75 64.53 62.57 60.99 59.87 59.26
99.51 100.64 101.85 103.32 105.15 107.41 110.07 113.04 116.19 119.33 122.25 124.76 126.69 127.94 128.45 128.28 127.52 126.32 124.88 123.42 122.13 121.17 120.63 120.56 120.91 121.58 122.41 123.22 123.82 124.04 123.77 122.93 121.54 119.67 117.48 115.15 112.88 110.89 109.36 108.42 108.13 108.48 109.39 110.73 112.31 113.93 115.40 116.57 117.34 117.66 117.58 117.20 116.66 116.17 115.91 116.06 116.76 118.10 120.07 122.61 125.60 128.84 132.13 135.26 138.04 140.32 142.03 143.15 143.75 143.96 143.93 143.85 143.92 144.28 145.04 146.23 147.83 149.74 151.78 153.78 155.51 156.79 157.45 157.40 156.60 155.10 153.00 150.47 147.70 144.91 142.27 139.94 138.00 136.46 135.27 134.32 133.44 132.45 131.15 129.39 127.04 124.08 120.50 116.42 111.99 107.40 102.87 98.61 94.79 91.53 88.89 86.85 85.33 84.17 83.21 82.25 81.10 79.63 77.75 75.45 72.78 69.87 66.87 63.98 61.42 59.36 57.92 57.19
98.49 99.32 100.30 101.62 103.43 105.81 108.73 112.09 115.70 119.33 122.74 125.67 127.92 129.36 129.94 129.69 128.74 127.29 125.57 123.85 122.36 121.30 120.79 120.88 121.50 122.53 123.77 124.99 125.95 126.44 126.31 125.47 123.93 121.80 119.23 116.48 113.79 111.42 109.59 108.47 108.13 108.56 109.66 111.24 113.10 114.98 116.65 117.91 118.64 118.79 118.40 117.61 116.61 115.63 114.92 114.70 115.16 116.38 118.38 121.08 124.33 127.89 131.51 134.94 137.93 140.33 142.02 143.00 143.35 143.23 142.84 142.43 142.23 142.42 143.15 144.46 146.31 148.57 151.06 153.53 155.71 157.38 158.33 158.44 157.67 156.06 153.76 150.97 147.93 144.90 142.09 139.70 137.83 136.50 135.63 135.09 134.65 134.09 133.17 131.69 129.50 126.54 122.83 118.50 113.72 108.73 103.82 99.22 95.15 91.76 89.13 87.21 85.91 85.04 84.37 83.67 82.71 81.31 79.37 76.86 73.86 70.51 67.03 63.65 60.63 58.19 56.50 55.66
97.42 98.16 99.06 100.36 102.21 104.70 107.79 111.38 115.27 119.19 122.88 126.07 128.54 130.14 130.80 130.58 129.60 128.08 126.29 124.50 122.97 121.91 121.46 121.66 122.44 123.67 125.13 126.56 127.71 128.34 128.28 127.44 125.83 123.56 120.82 117.84 114.93 112.36 110.37 109.13 108.73 109.15 110.28 111.94 113.88 115.83 117.53 118.78 119.43 119.43 118.85 117.81 116.53 115.27 114.30 113.86 114.14 115.27 117.24 119.97 123.30 126.97 130.72 134.26 137.34 139.76 141.43 142.34 142.57 142.30 141.76 141.20 140.89 141.03 141.76 143.15 145.15 147.63 150.36 153.09 155.54 157.44 158.58 158.82 158.11 156.52 154.18 151.32 148.21 145.12 142.30 139.94 138.15 136.96 136.29 135.98 135.79 135.48 134.77 133.45 131.35 128.42 124.66 120.21 115.28 110.12 105.01 100.25 96.05 92.59 89.93 88.05 86.81 86.04 85.47 84.85 83.92 82.51 80.49 77.83 74.61 71.00 67.23 63.55 60.26 57.59 55.72 54.76
96.31 97.16 98.18 99.59 101.54 104.12 107.30 110.96 114.91 118.91 122.67 125.94 128.50 130.20 130.99 130.90 130.07 128.70 127.05 125.40 124.00 123.05 122.69 122.95 123.77 125.03 126.49 127.92 129.07 129.69 129.63 128.79 127.20 124.94 122.21 119.25 116.34 113.75 111.73 110.44 109.96 110.28 111.30 112.83 114.63 116.43 118.00 119.12 119.65 119.56 118.88 117.77 116.43 115.11 114.07 113.56 113.77 114.81 116.68 119.31 122.53 126.09 129.74 133.19 136.20 138.58 140.23 141.13 141.39 141.16 140.68 140.19 139.94 140.14 140.94 142.38 144.42 146.93 149.70 152.47 154.97 156.93 158.14 158.48 157.88 156.42 154.23 151.52 148.56 145.61 142.92 140.68 139.00 137.89 137.28 137.02 136.87 136.58 135.89 134.60 132.54 129.65 125.94 121.55 116.67 111.55 106.49 101.74 97.55 94.06 91.35 89.39 88.07 87.18 86.49 85.75 84.70 83.18 81.05 78.30 75.00 71.31 67.47 63.72 60.35 57.59 55.62 54.55
95.16 96.33 97.64 99.29 101.41 104.07 107.24 110.82 114.64 118.48 122.11 125.28 127.81 129.58 130.52 130.67 130.15 129.14 127.86 126.55 125.44 124.70 124.45 124.73 125.48 126.58 127.85 129.07 130.01 130.49 130.35 129.53 128.02 125.92 123.40 120.68 117.99 115.58 113.66 112.38 111.81 111.95 112.70 113.90 115.34 116.80 118.06 118.94 119.32 119.17 118.52 117.51 116.30 115.13 114.23 113.81 114.04 115.00 116.71 119.10 122.02 125.26 128.59 131.75 134.54 136.79 138.42 139.40 139.82 139.82 139.60 139.38 139.37 139.76 140.66 142.12 144.10 146.48 149.08 151.67 154.01 155.86 157.04 157.43 157.00 155.78 153.91 151.56 148.97 146.37 143.96 141.93 140.36 139.27 138.59 138.19 137.86 137.39 136.55 135.16 133.08 130.24 126.68 122.50 117.87 113.03 108.22 103.68 99.60 96.15 93.36 91.23 89.65 88.46 87.44 86.38 85.06 83.32 81.07 78.28 75.03 71.45 67.75 64.15 60.89 58.19 56.21 55.02
93.97 95.64 97.41 99.41 101.75 104.47 107.55 110.92 114.43 117.93 121.22 124.15 126.55 128.33 129.45 129.94 129.88 129.40 128.68 127.90 127.22 126.79 126.68 126.93 127.50 128.30 129.19 130.01 130.60 130.81 130.53 129.71 128.37 126.56 124.43 122.13 119.86 117.79 116.09 114.88 114.21 114.09 114.43 115.13 116.04 116.97 117.78 118.33 118.52 118.34 117.82 117.05 116.17 115.34 114.75 114.55 114.86 115.76 117.26 119.29 121.74 124.47 127.28 129.99 132.43 134.49 136.08 137.21 137.91 138.31 138.54 138.76 139.15 139.82 140.86 142.31 144.14 146.25 148.49 150.70 152.69 154.29 155.34 155.77 155.53 154.66 153.25 151.45 149.42 147.33 145.35 143.60 142.16 141.03 140.17 139.47 138.78 137.95 136.80 135.19 133.03 130.27 126.94 123.11 118.92 114.54 110.17 105.99 102.16 98.77 95.89 93.51 91.53 89.86 88.33 86.77 85.04 83.01 80.61 77.84 74.75 71.44 68.06 64.80 61.84 59.33 57.39 56.10
92.75 95.06 97.39 99.83 102.43 105.20 108.13 111.18 114.25 117.25 120.08 122.64 124.83 126.60 127.92 128.81 129.32 129.52 129.50 129.38 129.25 129.18 129.24 129.43 129.74 130.12 130.50 130.79 130.90 130.75 130.28 129.48 128.35 126.94 125.32 123.60 121.88 120.29 118.90 117.80 117.03 116.58 116.43 116.50 116.73 117.00 117.25 117.39 117.37 117.19 116.87 116.46 116.03 115.70 115.54 115.66 116.13 116.97 118.21 119.79 121.66 123.72 125.87 127.99 129.99 131.79 133.36 134.67 135.75 136.66 137.48 138.28 139.17 140.19 141.41 142.83 144.43 146.15 147.91 149.59 151.10 152.32 153.18 153.61 153.59 153.15 152.33 151.21 149.88 148.44 146.98 145.57 144.26 143.05 141.92 140.80 139.62 138.29 136.71 134.80 132.53 129.86 126.81 123.44 119.83 116.07 112.29 108.59 105.08 101.80 98.81 96.10 93.64 91.35 89.17 86.99 84.75 82.37 79.82 77.11 74.26 71.33 68.43 65.66 63.11 60.88 59.05 57.65
91.50 94.52 97.49 100.41 103.28 106.09 108.84 111.50 114.05 116.48 118.76 120.88 122.81 124.55 126.09 127.42 128.56 129.51 130.28 130.90 131.37 131.72 131.94 132.06 132.07 131.97 131.77 131.45 131.01 130.45 129.78 129.00 128.11 127.15 126.13 125.07 124.00 122.94 121.93 120.97 120.09 119.29 118.58 117.96 117.43 116.97 116.59 116.29 116.05 115.89 115.81 115.82 115.93 116.16 116.52 117.01 117.66 118.46 119.41 120.49 121.70 123.01 124.41 125.87 127.37 128.89 130.42 131.94 133.44 134.93 136.41 137.87 139.31 140.74 142.15 143.52 144.85 146.12 147.30 148.37 149.31 150.10 150.71 151.13 151.36 151.38 151.21 150.85 150.30 149.58 148.70 147.67 146.50 145.18 143.73 142.13 140.38 138.47 136.39 134.15 131.74 129.17 126.45 123.60 120.64 117.59 114.48 111.35 108.20 105.06 101.96 98.89 95.87 92.91 90.00 87.13 84.32 81.56 78.86 76.22 73.67 71.20 68.86 66.65 64.59 62.71 61.01 59.50
90.23 93.96 97.56 100.97 104.11 106.96 109.51 111.77 113.79 115.63 117.35 119.02 120.68 122.39 124.14 125.92 127.69 129.40 130.98 132.35 133.44 134.20 134.60 134.65 134.35 133.77 132.97 132.04 131.05 130.08 129.20 128.44 127.82 127.32 126.91 126.53 126.12 125.63 124.99 124.19 123.20 122.05 120.78 119.46 118.16 116.97 115.96 115.21 114.75 114.61 114.78 115.22 115.88 116.68 117.56 118.45 119.28 120.03 120.68 121.26 121.79 122.34 122.98 123.76 124.74 125.97 127.46 129.18 131.12 133.19 135.33 137.45 139.46 141.28 142.87 144.19 145.24 146.04 146.63 147.08 147.44 147.77 148.13 148.54 149.01 149.50 149.98 150.39 150.63 150.64 150.35 149.70 148.67 147.25 145.47 143.38 141.05 138.56 135.98 133.39 130.85 128.39 126.01 123.69 121.40 119.08 116.67 114.10 111.33 108.34 105.13 101.71 98.14 94.49 90.85 87.29 83.91 80.77 77.92 75.37 73.12 71.13 69.35 67.72 66.17 64.64 63.08 61.47
88.94 93.32 97.50 101.34 104.73 107.61 109.98 111.89 113.42 114.73 115.94 117.20 118.63 120.31 122.26 124.46 126.83 129.24 131.56 133.62 135.28 136.44 137.01 137.00 136.44 135.43 134.10 132.62 131.14 129.81 128.75 128.02 127.64 127.57 127.72 127.97 128.17 128.19 127.91 127.24 126.16 124.69 122.92 120.95 118.95 117.08 115.50 114.33 113.67 113.54 113.93 114.76 115.91 117.23 118.57 119.80 120.79 121.48 121.86 121.96 121.87 121.71 121.64 121.79 122.29 123.24 124.68 126.58 128.90 131.50 134.23 136.94 139.46 141.64 143.39 144.66 145.45 145.82 145.87 145.74 145.57 145.50 145.63 146.04 146.72 147.66 148.74 149.85 150.82 151.51 151.76 151.47 150.58 149.07 147.01 144.48 141.64 138.62 135.60 132.72 130.07 127.71 125.65 123.83 122.16 120.51 118.74 116.70 114.29 111.45 108.14 104.40 100.33 96.07 91.75 87.57 83.67 80.18 77.19 74.72 72.74 71.19 69.92 68.82 67.72 66.50 65.06 63.35
87.63 92.53 97.17 101.37 104.96 107.88 110.11 111.74 112.90 113.79 114.61 115.56 116.82 118.50 120.63 123.19 126.05 129.05 131.98 134.61 136.76 138.25 138.99 138.96 138.21 136.87 135.14 133.23 131.38 129.78 128.59 127.90 127.73 128.01 128.62 129.38 130.07 130.51 130.50 129.95 128.79 127.07 124.88 122.39 119.83 117.40 115.35 113.84 112.99 112.86 113.40 114.52 116.04 117.75 119.45 120.92 122.02 122.64 122.77 122.46 121.85 121.11 120.45 120.07 120.17 120.88 122.26 124.30 126.90 129.90 133.11 136.28 139.19 141.66 143.53 144.75 145.34 145.36 144.99 144.41 143.82 143.43 143.40 143.80 144.68 145.98 147.56 149.25 150.83 152.07 152.78 152.80 152.04 150.49 148.22 145.37 142.14 138.73 135.38 132.27 129.56 127.31 125.52 124.12 122.97 121.87 120.62 119.02 116.91 114.18 110.80 106.82 102.36 97.60 92.75 88.06 83.75 79.98 76.86 74.44 72.68 71.45 70.58 69.88 69.13 68.14 66.78 64.96
86.32 91.55 96.49 100.92 104.66 107.61 109.77 111.24 112.19 112.83 113.43 114.22 115.40 117.11 119.39 122.21 125.43 128.84 132.21 135.26 137.76 139.50 140.38 140.37 139.54 138.03 136.07 133.93 131.86 130.11 128.86 128.22 128.20 128.74 129.66 130.75 131.77 132.47 132.65 132.16 130.95 129.05 126.58 123.75 120.79 117.99 115.61 113.84 112.85 112.68 113.30 114.56 116.28 118.21 120.10 121.69 122.82 123.35 123.29 122.68 121.69 120.54 119.46 118.71 118.52 119.04 120.36 122.45 125.21 128.46 131.94 135.40 138.56 141.20 143.15 144.34 144.79 144.60 143.96 143.10 142.26 141.68 141.55 141.99 143.02 144.58 146.51 148.61 150.61 152.25 153.29 153.55 152.91 151.38 149.02 146.00 142.55 138.93 135.39 132.18 129.46 127.32 125.74 124.64 123.84 123.12 122.23 120.94 119.03 116.39 112.98 108.85 104.13 99.05 93.86 88.84 84.25 80.28 77.07 74.67 73.01 71.97 71.34 70.86 70.30 69.43 68.08 66.16
